(Exported by FreeCAD)
(Post Processor: linuxcnc_post)
(Output Time:2019-06-28 07:07:39.195696)
(begin preamble)
G17 G54 G40 G49 G80 G90
G21
(begin operation: T1: 1/8 2 Flute )
(machine: not set, mm/min)
(T1: 1/8 2 Flute )
M6 T1
M3 S4000
(finish operation: T1: 1/8 2 Flute )
(begin operation: Profile_Faces)
(machine: not set, mm/min)
(Profile_Faces)
(Compensated Tool Path. Diameter: 3.12)
G0 Z5.000
G0 X22.938 Y22.938
G0 Z3.000
G1 X22.938 Y22.938 Z-3.120 F2520.000
G2 X32.364 Y2.214 Z-3.120 I-22.938 J-22.938 F2520.000
G2 X-32.364 Y-2.214 Z-3.120 I-32.364 J-2.214 F2520.000
G2 X22.938 Y22.938 Z-3.120 I32.364 J2.214 F2520.000
G1 X22.938 Y22.938 Z-6.240 F2520.000
G2 X32.364 Y2.214 Z-6.240 I-22.938 J-22.938 F2520.000
G2 X-32.364 Y-2.214 Z-6.240 I-32.364 J-2.214 F2520.000
G2 X22.938 Y22.938 Z-6.240 I32.364 J2.214 F2520.000
G1 X22.938 Y22.938 Z-9.360 F2520.000
G2 X32.364 Y2.214 Z-9.360 I-22.938 J-22.938 F2520.000
G2 X-32.364 Y-2.214 Z-9.360 I-32.364 J-2.214 F2520.000
G2 X22.938 Y22.938 Z-9.360 I32.364 J2.214 F2520.000
G1 X22.938 Y22.938 Z-12.480 F2520.000
G2 X32.364 Y2.214 Z-12.480 I-22.938 J-22.938 F2520.000
G2 X-32.364 Y-2.214 Z-12.480 I-32.364 J-2.214 F2520.000
G2 X22.938 Y22.938 Z-12.480 I32.364 J2.214 F2520.000
G1 X22.938 Y22.938 Z-15.600 F2520.000
G2 X32.364 Y2.214 Z-15.600 I-22.938 J-22.938 F2520.000
G2 X-32.364 Y-2.214 Z-15.600 I-32.364 J-2.214 F2520.000
G2 X22.938 Y22.938 Z-15.600 I32.364 J2.214 F2520.000
G1 X22.938 Y22.938 Z-18.720 F2520.000
G2 X32.364 Y2.214 Z-18.720 I-22.938 J-22.938 F2520.000
G2 X-32.364 Y-2.214 Z-18.720 I-32.364 J-2.214 F2520.000
G2 X22.938 Y22.938 Z-18.720 I32.364 J2.214 F2520.000
G1 X22.938 Y22.938 Z-19.000 F2520.000
G2 X32.364 Y2.214 Z-19.000 I-22.938 J-22.938 F2520.000
G2 X-32.364 Y-2.214 Z-19.000 I-32.364 J-2.214 F2520.000
G2 X22.938 Y22.938 Z-19.000 I32.364 J2.214 F2520.000
G0 Z5.000
(finish operation: Profile_Faces)
(begin operation: Profile_Faces001)
(machine: not set, mm/min)
(Profile_Faces001)
(Compensated Tool Path. Diameter: 3.12)
G0 Z5.000
G0 X0.663 Y128.163
G0 Z3.000
G1 X0.663 Y128.163 Z-3.120 F2520.000
G2 X0.224 Y126.590 Z-3.120 I-0.663 J-0.663 F2520.000
G2 X-0.224 Y128.410 Z-3.120 I-0.224 J0.910 F2520.000
G2 X0.663 Y128.163 Z-3.120 I0.224 J-0.910 F2520.000
G1 X0.663 Y128.163 Z-6.240 F2520.000
G2 X0.224 Y126.590 Z-6.240 I-0.663 J-0.663 F2520.000
G2 X-0.224 Y128.410 Z-6.240 I-0.224 J0.910 F2520.000
G2 X0.663 Y128.163 Z-6.240 I0.224 J-0.910 F2520.000
G1 X0.663 Y128.163 Z-9.360 F2520.000
G2 X0.224 Y126.590 Z-9.360 I-0.663 J-0.663 F2520.000
G2 X-0.224 Y128.410 Z-9.360 I-0.224 J0.910 F2520.000
G2 X0.663 Y128.163 Z-9.360 I0.224 J-0.910 F2520.000
G1 X0.663 Y128.163 Z-12.480 F2520.000
G2 X0.224 Y126.590 Z-12.480 I-0.663 J-0.663 F2520.000
G2 X-0.224 Y128.410 Z-12.480 I-0.224 J0.910 F2520.000
G2 X0.663 Y128.163 Z-12.480 I0.224 J-0.910 F2520.000
G1 X0.663 Y128.163 Z-15.600 F2520.000
G2 X0.224 Y126.590 Z-15.600 I-0.663 J-0.663 F2520.000
G2 X-0.224 Y128.410 Z-15.600 I-0.224 J0.910 F2520.000
G2 X0.663 Y128.163 Z-15.600 I0.224 J-0.910 F2520.000
G1 X0.663 Y128.163 Z-18.720 F2520.000
G2 X0.224 Y126.590 Z-18.720 I-0.663 J-0.663 F2520.000
G2 X-0.224 Y128.410 Z-18.720 I-0.224 J0.910 F2520.000
G2 X0.663 Y128.163 Z-18.720 I0.224 J-0.910 F2520.000
G1 X0.663 Y128.163 Z-19.000 F2520.000
G2 X0.224 Y126.590 Z-19.000 I-0.663 J-0.663 F2520.000
G2 X-0.224 Y128.410 Z-19.000 I-0.224 J0.910 F2520.000
G2 X0.663 Y128.163 Z-19.000 I0.224 J-0.910 F2520.000
G0 Z5.000
(finish operation: Profile_Faces001)
(begin operation: Profile_Faces002)
(machine: not set, mm/min)
(Profile_Faces002)
(Compensated Tool Path. Diameter: 3.12)
G0 Z5.000
G0 X-109.755 Y-63.088
G0 Z3.000
G1 X-109.755 Y-63.088 Z-3.120 F2520.000
G2 X-110.128 Y-64.642 Z-3.120 I-0.662 J-0.662 F2520.000
G2 X-110.707 Y-62.860 Z-3.120 I-0.290 J0.891 F2520.000
G2 X-109.755 Y-63.088 Z-3.120 I0.290 J-0.891 F2520.000
G1 X-109.755 Y-63.088 Z-6.240 F2520.000
G2 X-110.128 Y-64.642 Z-6.240 I-0.662 J-0.662 F2520.000
G2 X-110.707 Y-62.860 Z-6.240 I-0.290 J0.891 F2520.000
G2 X-109.755 Y-63.088 Z-6.240 I0.290 J-0.891 F2520.000
G1 X-109.755 Y-63.088 Z-9.360 F2520.000
G2 X-110.128 Y-64.642 Z-9.360 I-0.662 J-0.662 F2520.000
G2 X-110.707 Y-62.860 Z-9.360 I-0.290 J0.891 F2520.000
G2 X-109.755 Y-63.088 Z-9.360 I0.290 J-0.891 F2520.000
G1 X-109.755 Y-63.088 Z-12.480 F2520.000
G2 X-110.128 Y-64.642 Z-12.480 I-0.662 J-0.662 F2520.000
G2 X-110.707 Y-62.860 Z-12.480 I-0.290 J0.891 F2520.000
G2 X-109.755 Y-63.088 Z-12.480 I0.290 J-0.891 F2520.000
G1 X-109.755 Y-63.088 Z-15.600 F2520.000
G2 X-110.128 Y-64.642 Z-15.600 I-0.662 J-0.662 F2520.000
G2 X-110.707 Y-62.860 Z-15.600 I-0.290 J0.891 F2520.000
G2 X-109.755 Y-63.088 Z-15.600 I0.290 J-0.891 F2520.000
G1 X-109.755 Y-63.088 Z-18.720 F2520.000
G2 X-110.128 Y-64.642 Z-18.720 I-0.662 J-0.662 F2520.000
G2 X-110.707 Y-62.860 Z-18.720 I-0.290 J0.891 F2520.000
G2 X-109.755 Y-63.088 Z-18.720 I0.290 J-0.891 F2520.000
G1 X-109.755 Y-63.088 Z-19.000 F2520.000
G2 X-110.128 Y-64.642 Z-19.000 I-0.662 J-0.662 F2520.000
G2 X-110.707 Y-62.860 Z-19.000 I-0.290 J0.891 F2520.000
G2 X-109.755 Y-63.088 Z-19.000 I0.290 J-0.891 F2520.000
G0 Z5.000
(finish operation: Profile_Faces002)
(begin operation: Profile_Faces003)
(machine: not set, mm/min)
(Profile_Faces003)
(Compensated Tool Path. Diameter: 3.12)
G0 Z5.000
G0 X111.081 Y-63.087
G0 Z3.000
G1 X111.081 Y-63.087 Z-3.120 F2520.000
G2 X110.708 Y-64.641 Z-3.120 I-0.662 J-0.662 F2520.000
G2 X110.129 Y-62.859 Z-3.120 I-0.290 J0.891 F2520.000
G2 X111.081 Y-63.087 Z-3.120 I0.290 J-0.891 F2520.000
G1 X111.081 Y-63.087 Z-6.240 F2520.000
G2 X110.708 Y-64.641 Z-6.240 I-0.662 J-0.662 F2520.000
G2 X110.129 Y-62.859 Z-6.240 I-0.290 J0.891 F2520.000
G2 X111.081 Y-63.087 Z-6.240 I0.290 J-0.891 F2520.000
G1 X111.081 Y-63.087 Z-9.360 F2520.000
G2 X110.708 Y-64.641 Z-9.360 I-0.662 J-0.662 F2520.000
G2 X110.129 Y-62.859 Z-9.360 I-0.290 J0.891 F2520.000
G2 X111.081 Y-63.087 Z-9.360 I0.290 J-0.891 F2520.000
G1 X111.081 Y-63.087 Z-12.480 F2520.000
G2 X110.708 Y-64.641 Z-12.480 I-0.662 J-0.662 F2520.000
G2 X110.129 Y-62.859 Z-12.480 I-0.290 J0.891 F2520.000
G2 X111.081 Y-63.087 Z-12.480 I0.290 J-0.891 F2520.000
G1 X111.081 Y-63.087 Z-15.600 F2520.000
G2 X110.708 Y-64.641 Z-15.600 I-0.662 J-0.662 F2520.000
G2 X110.129 Y-62.859 Z-15.600 I-0.290 J0.891 F2520.000
G2 X111.081 Y-63.087 Z-15.600 I0.290 J-0.891 F2520.000
G1 X111.081 Y-63.087 Z-18.720 F2520.000
G2 X110.708 Y-64.641 Z-18.720 I-0.662 J-0.662 F2520.000
G2 X110.129 Y-62.859 Z-18.720 I-0.290 J0.891 F2520.000
G2 X111.081 Y-63.087 Z-18.720 I0.290 J-0.891 F2520.000
G1 X111.081 Y-63.087 Z-19.000 F2520.000
G2 X110.708 Y-64.641 Z-19.000 I-0.662 J-0.662 F2520.000
G2 X110.129 Y-62.859 Z-19.000 I-0.290 J0.891 F2520.000
G2 X111.081 Y-63.087 Z-19.000 I0.290 J-0.891 F2520.000
G0 Z5.000
(finish operation: Profile_Faces003)
(begin operation: Pocket_Shape)
(machine: not set, mm/min)
(Pocket_Shape)
G0 Z5.000
G0 X104.963 Y104.963
G0 Z3.000
G1 X104.963 Y104.963 Z-3.120 F2520.000
G3 X-6.039 Y148.317 Z-3.120 I-104.963 J-104.963 F2520.000
G3 X6.039 Y-148.317 Z-3.120 I6.039 J-148.317 F2520.000
G3 X104.963 Y104.963 Z-3.120 I-6.039 J148.317 F2520.000
G0 X104.963 Y104.963 Z5.000
G0 X103.419 Y103.419 Z5.000
G0 X103.419 Y103.419 Z-0.120
G1 X103.419 Y103.419 Z-3.120 F2520.000
G3 X-5.950 Y146.135 Z-3.120 I-103.419 J-103.419 F2520.000
G3 X-146.135 Y-5.950 Z-3.120 I5.950 J-146.135 F2520.000
G3 X5.950 Y-146.135 Z-3.120 I146.135 J5.950 F2520.000
G3 X103.419 Y103.419 Z-3.120 I-5.950 J146.135 F2520.000
G0 X103.419 Y103.419 Z5.000
G0 X102.867 Y102.867 Z5.000
G0 X102.867 Y102.867 Z-0.120
G1 X102.867 Y102.867 Z-3.120 F2520.000
G3 X-5.918 Y145.355 Z-3.120 I-102.867 J-102.867 F2520.000
G3 X-145.355 Y-5.918 Z-3.120 I5.918 J-145.355 F2520.000
G3 X5.918 Y-145.355 Z-3.120 I145.355 J5.918 F2520.000
G3 X102.867 Y102.867 Z-3.120 I-5.918 J145.355 F2520.000
G0 X102.867 Y102.867 Z5.000
G0 X102.194 Y102.194 Z5.000
G0 X102.194 Y102.194 Z-0.120
G1 X102.194 Y102.194 Z-3.120 F2520.000
G3 X4.919 Y144.440 Z-3.120 I-102.194 J-102.194 F2520.000
G3 X-144.440 Y4.919 Z-3.120 I-4.919 J-144.440 F2520.000
G3 X-4.919 Y-144.440 Z-3.120 I144.440 J-4.919 F2520.000
G3 X102.194 Y102.194 Z-3.120 I4.919 J144.440 F2520.000
G0 X102.194 Y102.194 Z5.000
G0 X101.642 Y101.642 Z5.000
G0 X101.642 Y101.642 Z-0.120
G1 X101.642 Y101.642 Z-3.120 F2520.000
G3 X4.886 Y143.661 Z-3.120 I-101.642 J-101.642 F2520.000
G3 X-4.886 Y-143.661 Z-3.120 I-4.886 J-143.661 F2520.000
G3 X101.642 Y101.642 Z-3.120 I4.886 J143.661 F2520.000
G0 X101.642 Y101.642 Z5.000
G0 X100.098 Y100.098 Z5.000
G0 X100.098 Y100.098 Z-0.120
G1 X100.098 Y100.098 Z-3.120 F2520.000
G3 X4.794 Y141.479 Z-3.120 I-100.098 J-100.098 F2520.000
G3 X-4.794 Y-141.479 Z-3.120 I-4.794 J-141.479 F2520.000
G3 X100.098 Y100.098 Z-3.120 I4.794 J141.479 F2520.000
G1 X100.098 Y100.098 Z-6.240 F2520.000
G3 X4.794 Y141.479 Z-6.240 I-100.098 J-100.098 F2520.000
G3 X-4.794 Y-141.479 Z-6.240 I-4.794 J-141.479 F2520.000
G3 X100.098 Y100.098 Z-6.240 I4.794 J141.479 F2520.000
G0 X100.098 Y100.098 Z5.000
G0 X101.642 Y101.642 Z5.000
G0 X101.642 Y101.642 Z-3.240
G1 X101.642 Y101.642 Z-6.240 F2520.000
G3 X4.886 Y143.661 Z-6.240 I-101.642 J-101.642 F2520.000
G3 X-4.886 Y-143.661 Z-6.240 I-4.886 J-143.661 F2520.000
G3 X101.642 Y101.642 Z-6.240 I4.886 J143.661 F2520.000
G0 X101.642 Y101.642 Z5.000
G0 X102.194 Y102.194 Z5.000
G0 X102.194 Y102.194 Z-3.240
G1 X102.194 Y102.194 Z-6.240 F2520.000
G3 X4.919 Y144.440 Z-6.240 I-102.194 J-102.194 F2520.000
G3 X-144.440 Y4.919 Z-6.240 I-4.919 J-144.440 F2520.000
G3 X-4.919 Y-144.440 Z-6.240 I144.440 J-4.919 F2520.000
G3 X102.194 Y102.194 Z-6.240 I4.919 J144.440 F2520.000
G0 X102.194 Y102.194 Z5.000
G0 X102.867 Y102.867 Z5.000
G0 X102.867 Y102.867 Z-3.240
G1 X102.867 Y102.867 Z-6.240 F2520.000
G3 X-5.918 Y145.355 Z-6.240 I-102.867 J-102.867 F2520.000
G3 X-145.355 Y-5.918 Z-6.240 I5.918 J-145.355 F2520.000
G3 X5.918 Y-145.355 Z-6.240 I145.355 J5.918 F2520.000
G3 X102.867 Y102.867 Z-6.240 I-5.918 J145.355 F2520.000
G0 X102.867 Y102.867 Z5.000
G0 X103.419 Y103.419 Z5.000
G0 X103.419 Y103.419 Z-3.240
G1 X103.419 Y103.419 Z-6.240 F2520.000
G3 X-5.950 Y146.135 Z-6.240 I-103.419 J-103.419 F2520.000
G3 X-146.135 Y-5.950 Z-6.240 I5.950 J-146.135 F2520.000
G3 X5.950 Y-146.135 Z-6.240 I146.135 J5.950 F2520.000
G3 X103.419 Y103.419 Z-6.240 I-5.950 J146.135 F2520.000
G0 X103.419 Y103.419 Z5.000
G0 X104.963 Y104.963 Z5.000
G0 X104.963 Y104.963 Z-3.240
G1 X104.963 Y104.963 Z-6.240 F2520.000
G3 X-6.039 Y148.317 Z-6.240 I-104.963 J-104.963 F2520.000
G3 X6.039 Y-148.317 Z-6.240 I6.039 J-148.317 F2520.000
G3 X104.963 Y104.963 Z-6.240 I-6.039 J148.317 F2520.000
G1 X104.963 Y104.963 Z-8.000 F2520.000
G3 X-6.039 Y148.317 Z-8.000 I-104.963 J-104.963 F2520.000
G3 X6.039 Y-148.317 Z-8.000 I6.039 J-148.317 F2520.000
G3 X104.963 Y104.963 Z-8.000 I-6.039 J148.317 F2520.000
G0 X104.963 Y104.963 Z5.000
G0 X103.419 Y103.419 Z5.000
G0 X103.419 Y103.419 Z-5.000
G1 X103.419 Y103.419 Z-8.000 F2520.000
G3 X-5.950 Y146.135 Z-8.000 I-103.419 J-103.419 F2520.000
G3 X-146.135 Y-5.950 Z-8.000 I5.950 J-146.135 F2520.000
G3 X5.950 Y-146.135 Z-8.000 I146.135 J5.950 F2520.000
G3 X103.419 Y103.419 Z-8.000 I-5.950 J146.135 F2520.000
G0 X103.419 Y103.419 Z5.000
G0 X102.867 Y102.867 Z5.000
G0 X102.867 Y102.867 Z-5.000
G1 X102.867 Y102.867 Z-8.000 F2520.000
G3 X-5.918 Y145.355 Z-8.000 I-102.867 J-102.867 F2520.000
G3 X-145.355 Y-5.918 Z-8.000 I5.918 J-145.355 F2520.000
G3 X5.918 Y-145.355 Z-8.000 I145.355 J5.918 F2520.000
G3 X102.867 Y102.867 Z-8.000 I-5.918 J145.355 F2520.000
G0 X102.867 Y102.867 Z5.000
G0 X102.194 Y102.194 Z5.000
G0 X102.194 Y102.194 Z-5.000
G1 X102.194 Y102.194 Z-8.000 F2520.000
G3 X4.919 Y144.440 Z-8.000 I-102.194 J-102.194 F2520.000
G3 X-144.440 Y4.919 Z-8.000 I-4.919 J-144.440 F2520.000
G3 X-4.919 Y-144.440 Z-8.000 I144.440 J-4.919 F2520.000
G3 X102.194 Y102.194 Z-8.000 I4.919 J144.440 F2520.000
G0 X102.194 Y102.194 Z5.000
G0 X101.642 Y101.642 Z5.000
G0 X101.642 Y101.642 Z-5.000
G1 X101.642 Y101.642 Z-8.000 F2520.000
G3 X4.886 Y143.661 Z-8.000 I-101.642 J-101.642 F2520.000
G3 X-4.886 Y-143.661 Z-8.000 I-4.886 J-143.661 F2520.000
G3 X101.642 Y101.642 Z-8.000 I4.886 J143.661 F2520.000
G0 X101.642 Y101.642 Z5.000
G0 X100.098 Y100.098 Z5.000
G0 X100.098 Y100.098 Z-5.000
G1 X100.098 Y100.098 Z-8.000 F2520.000
G3 X4.794 Y141.479 Z-8.000 I-100.098 J-100.098 F2520.000
G3 X-4.794 Y-141.479 Z-8.000 I-4.794 J-141.479 F2520.000
G3 X100.098 Y100.098 Z-8.000 I4.794 J141.479 F2520.000
G0 Z5.000
(finish operation: Pocket_Shape)
(begin operation: Profile_Faces004)
(machine: not set, mm/min)
(Profile_Faces004)
(Compensated Tool Path. Diameter: 3.12)
G0 Z5.000
G0 X107.169 Y107.169
G0 Z3.000
G1 X107.169 Y107.169 Z-3.120 F2520.000
G2 X151.479 Y4.946 Z-3.120 I-107.169 J-107.169 F2520.000
G2 X-151.479 Y-4.946 Z-3.120 I-151.479 J-4.946 F2520.000
G2 X107.169 Y107.169 Z-3.120 I151.479 J4.946 F2520.000
G1 X107.169 Y107.169 Z-6.240 F2520.000
G2 X151.479 Y4.946 Z-6.240 I-107.169 J-107.169 F2520.000
G2 X-151.479 Y-4.946 Z-6.240 I-151.479 J-4.946 F2520.000
G2 X107.169 Y107.169 Z-6.240 I151.479 J4.946 F2520.000
G1 X107.169 Y107.169 Z-9.360 F2520.000
G2 X151.479 Y4.946 Z-9.360 I-107.169 J-107.169 F2520.000
G2 X-151.479 Y-4.946 Z-9.360 I-151.479 J-4.946 F2520.000
G2 X107.169 Y107.169 Z-9.360 I151.479 J4.946 F2520.000
G1 X107.169 Y107.169 Z-12.480 F2520.000
G2 X151.479 Y4.946 Z-12.480 I-107.169 J-107.169 F2520.000
G2 X-151.479 Y-4.946 Z-12.480 I-151.479 J-4.946 F2520.000
G2 X107.169 Y107.169 Z-12.480 I151.479 J4.946 F2520.000
G1 X107.169 Y107.169 Z-15.600 F2520.000
G2 X151.479 Y4.946 Z-15.600 I-107.169 J-107.169 F2520.000
G2 X-151.479 Y-4.946 Z-15.600 I-151.479 J-4.946 F2520.000
G2 X107.169 Y107.169 Z-15.600 I151.479 J4.946 F2520.000
G1 X107.169 Y107.169 Z-18.720 F2520.000
G2 X151.479 Y4.946 Z-18.720 I-107.169 J-107.169 F2520.000
G2 X-151.479 Y-4.946 Z-18.720 I-151.479 J-4.946 F2520.000
G2 X107.169 Y107.169 Z-18.720 I151.479 J4.946 F2520.000
G1 X107.169 Y107.169 Z-19.000 F2520.000
G2 X151.479 Y4.946 Z-19.000 I-107.169 J-107.169 F2520.000
G2 X-151.479 Y-4.946 Z-19.000 I-151.479 J-4.946 F2520.000
G2 X107.169 Y107.169 Z-19.000 I151.479 J4.946 F2520.000
G0 Z5.000
(finish operation: Profile_Faces004)
(begin postamble)
M05
G17 G54 G90 G80 G40
M2
