(Exported by FreeCAD)
(Post Processor: linuxcnc_post)
(Output Time:2019-06-28 09:08:43.082121)
(begin preamble)
G17 G54 G40 G49 G80 G90
G21
(begin operation: T1: 1/8 2 Flute )
(machine: not set, mm/min)
(T1: 1/8 2 Flute )
M6 T1
M3 S4000
(finish operation: T1: 1/8 2 Flute )
(begin operation: Profile_Faces)
(machine: not set, mm/min)
(Profile_Faces)
(Compensated Tool Path. Diameter: 3.12)
G0 Z6.000
G0 X38.467 Y50.967
G0 Z4.000
G1 X38.467 Y50.967 Z-2.120 F2520.000
G2 X40.940 Y44.975 Z-2.120 I-5.969 J-5.969 F2520.000
G1 X40.940 Y-44.975 Z-2.120 F2520.000
G2 X32.475 Y-53.440 Z-2.120 I-8.442 J-0.023 F2520.000
G1 X2.525 Y-53.440 Z-2.120 F2520.000
G2 X-5.940 Y-44.975 Z-2.120 I-0.023 J8.442 F2520.000
G1 X-5.940 Y44.975 Z-2.120 F2520.000
G2 X2.525 Y53.440 Z-2.120 I8.442 J0.023 F2520.000
G1 X32.475 Y53.440 Z-2.120 F2520.000
G2 X38.467 Y50.967 Z-2.120 I0.023 J-8.442 F2520.000
G1 X38.467 Y50.967 Z-5.240 F2520.000
G2 X40.940 Y44.975 Z-5.240 I-5.969 J-5.969 F2520.000
G1 X40.940 Y-44.975 Z-5.240 F2520.000
G2 X32.475 Y-53.440 Z-5.240 I-8.442 J-0.023 F2520.000
G1 X2.525 Y-53.440 Z-5.240 F2520.000
G2 X-5.940 Y-44.975 Z-5.240 I-0.023 J8.442 F2520.000
G1 X-5.940 Y44.975 Z-5.240 F2520.000
G2 X2.525 Y53.440 Z-5.240 I8.442 J0.023 F2520.000
G1 X32.475 Y53.440 Z-5.240 F2520.000
G2 X38.467 Y50.967 Z-5.240 I0.023 J-8.442 F2520.000
G1 X38.467 Y50.967 Z-8.360 F2520.000
G2 X40.940 Y44.975 Z-8.360 I-5.969 J-5.969 F2520.000
G1 X40.940 Y-44.975 Z-8.360 F2520.000
G2 X32.475 Y-53.440 Z-8.360 I-8.442 J-0.023 F2520.000
G1 X2.525 Y-53.440 Z-8.360 F2520.000
G2 X-5.940 Y-44.975 Z-8.360 I-0.023 J8.442 F2520.000
G1 X-5.940 Y44.975 Z-8.360 F2520.000
G2 X2.525 Y53.440 Z-8.360 I8.442 J0.023 F2520.000
G1 X32.475 Y53.440 Z-8.360 F2520.000
G2 X38.467 Y50.967 Z-8.360 I0.023 J-8.442 F2520.000
G1 X38.467 Y50.967 Z-11.480 F2520.000
G2 X40.940 Y44.975 Z-11.480 I-5.969 J-5.969 F2520.000
G1 X40.940 Y-44.975 Z-11.480 F2520.000
G2 X32.475 Y-53.440 Z-11.480 I-8.442 J-0.023 F2520.000
G1 X2.525 Y-53.440 Z-11.480 F2520.000
G2 X-5.940 Y-44.975 Z-11.480 I-0.023 J8.442 F2520.000
G1 X-5.940 Y44.975 Z-11.480 F2520.000
G2 X2.525 Y53.440 Z-11.480 I8.442 J0.023 F2520.000
G1 X32.475 Y53.440 Z-11.480 F2520.000
G2 X38.467 Y50.967 Z-11.480 I0.023 J-8.442 F2520.000
G1 X38.467 Y50.967 Z-14.600 F2520.000
G2 X40.940 Y44.975 Z-14.600 I-5.969 J-5.969 F2520.000
G1 X40.940 Y-44.975 Z-14.600 F2520.000
G2 X32.475 Y-53.440 Z-14.600 I-8.442 J-0.023 F2520.000
G1 X2.525 Y-53.440 Z-14.600 F2520.000
G2 X-5.940 Y-44.975 Z-14.600 I-0.023 J8.442 F2520.000
G1 X-5.940 Y44.975 Z-14.600 F2520.000
G2 X2.525 Y53.440 Z-14.600 I8.442 J0.023 F2520.000
G1 X32.475 Y53.440 Z-14.600 F2520.000
G2 X38.467 Y50.967 Z-14.600 I0.023 J-8.442 F2520.000
G1 X38.467 Y50.967 Z-17.720 F2520.000
G2 X40.940 Y44.975 Z-17.720 I-5.969 J-5.969 F2520.000
G1 X40.940 Y-44.975 Z-17.720 F2520.000
G2 X32.475 Y-53.440 Z-17.720 I-8.442 J-0.023 F2520.000
G1 X2.525 Y-53.440 Z-17.720 F2520.000
G2 X-5.940 Y-44.975 Z-17.720 I-0.023 J8.442 F2520.000
G1 X-5.940 Y44.975 Z-17.720 F2520.000
G2 X2.525 Y53.440 Z-17.720 I8.442 J0.023 F2520.000
G1 X32.475 Y53.440 Z-17.720 F2520.000
G2 X38.467 Y50.967 Z-17.720 I0.023 J-8.442 F2520.000
G1 X38.467 Y50.967 Z-19.000 F2520.000
G2 X40.940 Y44.975 Z-19.000 I-5.969 J-5.969 F2520.000
G1 X40.940 Y-44.975 Z-19.000 F2520.000
G2 X32.475 Y-53.440 Z-19.000 I-8.442 J-0.023 F2520.000
G1 X2.525 Y-53.440 Z-19.000 F2520.000
G2 X-5.940 Y-44.975 Z-19.000 I-0.023 J8.442 F2520.000
G1 X-5.940 Y44.975 Z-19.000 F2520.000
G2 X2.525 Y53.440 Z-19.000 I8.442 J0.023 F2520.000
G1 X32.475 Y53.440 Z-19.000 F2520.000
G2 X38.467 Y50.967 Z-19.000 I0.023 J-8.442 F2520.000
G0 Z6.000
(finish operation: Profile_Faces)
(begin operation: Profile_Faces001)
(machine: not set, mm/min)
(Profile_Faces001)
(Compensated Tool Path. Diameter: 3.12)
G0 Z6.000
G0 X111.081 Y-63.087
G0 Z4.000
G1 X111.081 Y-63.087 Z-2.120 F2520.000
G2 X110.708 Y-64.641 Z-2.120 I-0.662 J-0.662 F2520.000
G2 X110.129 Y-62.859 Z-2.120 I-0.290 J0.891 F2520.000
G2 X111.081 Y-63.087 Z-2.120 I0.290 J-0.891 F2520.000
G1 X111.081 Y-63.087 Z-5.240 F2520.000
G2 X110.708 Y-64.641 Z-5.240 I-0.662 J-0.662 F2520.000
G2 X110.129 Y-62.859 Z-5.240 I-0.290 J0.891 F2520.000
G2 X111.081 Y-63.087 Z-5.240 I0.290 J-0.891 F2520.000
G1 X111.081 Y-63.087 Z-8.360 F2520.000
G2 X110.708 Y-64.641 Z-8.360 I-0.662 J-0.662 F2520.000
G2 X110.129 Y-62.859 Z-8.360 I-0.290 J0.891 F2520.000
G2 X111.081 Y-63.087 Z-8.360 I0.290 J-0.891 F2520.000
G1 X111.081 Y-63.087 Z-11.480 F2520.000
G2 X110.708 Y-64.641 Z-11.480 I-0.662 J-0.662 F2520.000
G2 X110.129 Y-62.859 Z-11.480 I-0.290 J0.891 F2520.000
G2 X111.081 Y-63.087 Z-11.480 I0.290 J-0.891 F2520.000
G1 X111.081 Y-63.087 Z-14.600 F2520.000
G2 X110.708 Y-64.641 Z-14.600 I-0.662 J-0.662 F2520.000
G2 X110.129 Y-62.859 Z-14.600 I-0.290 J0.891 F2520.000
G2 X111.081 Y-63.087 Z-14.600 I0.290 J-0.891 F2520.000
G1 X111.081 Y-63.087 Z-17.720 F2520.000
G2 X110.708 Y-64.641 Z-17.720 I-0.662 J-0.662 F2520.000
G2 X110.129 Y-62.859 Z-17.720 I-0.290 J0.891 F2520.000
G2 X111.081 Y-63.087 Z-17.720 I0.290 J-0.891 F2520.000
G1 X111.081 Y-63.087 Z-19.000 F2520.000
G2 X110.708 Y-64.641 Z-19.000 I-0.662 J-0.662 F2520.000
G2 X110.129 Y-62.859 Z-19.000 I-0.290 J0.891 F2520.000
G2 X111.081 Y-63.087 Z-19.000 I0.290 J-0.891 F2520.000
G0 Z6.000
(finish operation: Profile_Faces001)
(begin operation: Profile_Faces002)
(machine: not set, mm/min)
(Profile_Faces002)
(Compensated Tool Path. Diameter: 3.12)
G0 Z6.000
G0 X-109.755 Y-63.088
G0 Z4.000
G1 X-109.755 Y-63.088 Z-2.120 F2520.000
G2 X-110.128 Y-64.642 Z-2.120 I-0.662 J-0.662 F2520.000
G2 X-110.707 Y-62.860 Z-2.120 I-0.290 J0.891 F2520.000
G2 X-109.755 Y-63.088 Z-2.120 I0.290 J-0.891 F2520.000
G1 X-109.755 Y-63.088 Z-5.240 F2520.000
G2 X-110.128 Y-64.642 Z-5.240 I-0.662 J-0.662 F2520.000
G2 X-110.707 Y-62.860 Z-5.240 I-0.290 J0.891 F2520.000
G2 X-109.755 Y-63.088 Z-5.240 I0.290 J-0.891 F2520.000
G1 X-109.755 Y-63.088 Z-8.360 F2520.000
G2 X-110.128 Y-64.642 Z-8.360 I-0.662 J-0.662 F2520.000
G2 X-110.707 Y-62.860 Z-8.360 I-0.290 J0.891 F2520.000
G2 X-109.755 Y-63.088 Z-8.360 I0.290 J-0.891 F2520.000
G1 X-109.755 Y-63.088 Z-11.480 F2520.000
G2 X-110.128 Y-64.642 Z-11.480 I-0.662 J-0.662 F2520.000
G2 X-110.707 Y-62.860 Z-11.480 I-0.290 J0.891 F2520.000
G2 X-109.755 Y-63.088 Z-11.480 I0.290 J-0.891 F2520.000
G1 X-109.755 Y-63.088 Z-14.600 F2520.000
G2 X-110.128 Y-64.642 Z-14.600 I-0.662 J-0.662 F2520.000
G2 X-110.707 Y-62.860 Z-14.600 I-0.290 J0.891 F2520.000
G2 X-109.755 Y-63.088 Z-14.600 I0.290 J-0.891 F2520.000
G1 X-109.755 Y-63.088 Z-17.720 F2520.000
G2 X-110.128 Y-64.642 Z-17.720 I-0.662 J-0.662 F2520.000
G2 X-110.707 Y-62.860 Z-17.720 I-0.290 J0.891 F2520.000
G2 X-109.755 Y-63.088 Z-17.720 I0.290 J-0.891 F2520.000
G1 X-109.755 Y-63.088 Z-19.000 F2520.000
G2 X-110.128 Y-64.642 Z-19.000 I-0.662 J-0.662 F2520.000
G2 X-110.707 Y-62.860 Z-19.000 I-0.290 J0.891 F2520.000
G2 X-109.755 Y-63.088 Z-19.000 I0.290 J-0.891 F2520.000
G0 Z6.000
(finish operation: Profile_Faces002)
(begin operation: Profile_Faces003)
(machine: not set, mm/min)
(Profile_Faces003)
(Compensated Tool Path. Diameter: 3.12)
G0 Z6.000
G0 X0.663 Y128.163
G0 Z4.000
G1 X0.663 Y128.163 Z-2.120 F2520.000
G2 X0.224 Y126.590 Z-2.120 I-0.663 J-0.663 F2520.000
G2 X-0.224 Y128.410 Z-2.120 I-0.224 J0.910 F2520.000
G2 X0.663 Y128.163 Z-2.120 I0.224 J-0.910 F2520.000
G1 X0.663 Y128.163 Z-5.240 F2520.000
G2 X0.224 Y126.590 Z-5.240 I-0.663 J-0.663 F2520.000
G2 X-0.224 Y128.410 Z-5.240 I-0.224 J0.910 F2520.000
G2 X0.663 Y128.163 Z-5.240 I0.224 J-0.910 F2520.000
G1 X0.663 Y128.163 Z-8.360 F2520.000
G2 X0.224 Y126.590 Z-8.360 I-0.663 J-0.663 F2520.000
G2 X-0.224 Y128.410 Z-8.360 I-0.224 J0.910 F2520.000
G2 X0.663 Y128.163 Z-8.360 I0.224 J-0.910 F2520.000
G1 X0.663 Y128.163 Z-11.480 F2520.000
G2 X0.224 Y126.590 Z-11.480 I-0.663 J-0.663 F2520.000
G2 X-0.224 Y128.410 Z-11.480 I-0.224 J0.910 F2520.000
G2 X0.663 Y128.163 Z-11.480 I0.224 J-0.910 F2520.000
G1 X0.663 Y128.163 Z-14.600 F2520.000
G2 X0.224 Y126.590 Z-14.600 I-0.663 J-0.663 F2520.000
G2 X-0.224 Y128.410 Z-14.600 I-0.224 J0.910 F2520.000
G2 X0.663 Y128.163 Z-14.600 I0.224 J-0.910 F2520.000
G1 X0.663 Y128.163 Z-17.720 F2520.000
G2 X0.224 Y126.590 Z-17.720 I-0.663 J-0.663 F2520.000
G2 X-0.224 Y128.410 Z-17.720 I-0.224 J0.910 F2520.000
G2 X0.663 Y128.163 Z-17.720 I0.224 J-0.910 F2520.000
G1 X0.663 Y128.163 Z-19.000 F2520.000
G2 X0.224 Y126.590 Z-19.000 I-0.663 J-0.663 F2520.000
G2 X-0.224 Y128.410 Z-19.000 I-0.224 J0.910 F2520.000
G2 X0.663 Y128.163 Z-19.000 I0.224 J-0.910 F2520.000
G0 Z6.000
(finish operation: Profile_Faces003)
(begin operation: Pocket_Shape)
(machine: not set, mm/min)
(Pocket_Shape)
G0 Z6.000
G0 X104.963 Y104.963
G0 Z4.000
G1 X104.963 Y104.963 Z-2.120 F2520.000
G3 X-6.039 Y148.317 Z-2.120 I-104.963 J-104.963 F2520.000
G3 X6.039 Y-148.317 Z-2.120 I6.039 J-148.317 F2520.000
G3 X104.963 Y104.963 Z-2.120 I-6.039 J148.317 F2520.000
G0 X104.963 Y104.963 Z6.000
G0 X103.198 Y103.198 Z6.000
G0 X103.198 Y103.198 Z1.880
G1 X103.198 Y103.198 Z-2.120 F2520.000
G3 X-5.937 Y145.823 Z-2.120 I-103.198 J-103.198 F2520.000
G3 X-145.823 Y-5.937 Z-2.120 I5.937 J-145.823 F2520.000
G3 X5.937 Y-145.823 Z-2.120 I145.823 J5.937 F2520.000
G3 X103.198 Y103.198 Z-2.120 I-5.937 J145.823 F2520.000
G0 X103.198 Y103.198 Z6.000
G0 X102.646 Y102.646 Z6.000
G0 X102.646 Y102.646 Z1.880
G1 X102.646 Y102.646 Z-2.120 F2520.000
G3 X-5.906 Y145.044 Z-2.120 I-102.646 J-102.646 F2520.000
G3 X5.906 Y-145.044 Z-2.120 I5.906 J-145.044 F2520.000
G3 X102.646 Y102.646 Z-2.120 I-5.906 J145.044 F2520.000
G0 X102.646 Y102.646 Z6.000
G0 X102.414 Y102.414 Z6.000
G0 X102.414 Y102.414 Z1.880
G1 X102.414 Y102.414 Z-2.120 F2520.000
G3 X4.933 Y144.752 Z-2.120 I-102.414 J-102.414 F2520.000
G3 X-4.933 Y-144.752 Z-2.120 I-4.933 J-144.752 F2520.000
G3 X102.414 Y102.414 Z-2.120 I4.933 J144.752 F2520.000
G0 X102.414 Y102.414 Z6.000
G0 X101.863 Y101.863 Z6.000
G0 X101.863 Y101.863 Z1.880
G1 X101.863 Y101.863 Z-2.120 F2520.000
G3 X4.900 Y143.973 Z-2.120 I-101.863 J-101.863 F2520.000
G3 X-4.900 Y-143.973 Z-2.120 I-4.900 J-143.973 F2520.000
G3 X101.863 Y101.863 Z-2.120 I4.900 J143.973 F2520.000
G0 X101.863 Y101.863 Z6.000
G0 X100.098 Y100.098 Z6.000
G0 X100.098 Y100.098 Z1.880
G1 X100.098 Y100.098 Z-2.120 F2520.000
G3 X4.794 Y141.479 Z-2.120 I-100.098 J-100.098 F2520.000
G3 X-4.794 Y-141.479 Z-2.120 I-4.794 J-141.479 F2520.000
G3 X100.098 Y100.098 Z-2.120 I4.794 J141.479 F2520.000
G1 X100.098 Y100.098 Z-5.240 F2520.000
G3 X4.794 Y141.479 Z-5.240 I-100.098 J-100.098 F2520.000
G3 X-4.794 Y-141.479 Z-5.240 I-4.794 J-141.479 F2520.000
G3 X100.098 Y100.098 Z-5.240 I4.794 J141.479 F2520.000
G0 X100.098 Y100.098 Z6.000
G0 X101.863 Y101.863 Z6.000
G0 X101.863 Y101.863 Z-1.240
G1 X101.863 Y101.863 Z-5.240 F2520.000
G3 X4.900 Y143.973 Z-5.240 I-101.863 J-101.863 F2520.000
G3 X-4.900 Y-143.973 Z-5.240 I-4.900 J-143.973 F2520.000
G3 X101.863 Y101.863 Z-5.240 I4.900 J143.973 F2520.000
G0 X101.863 Y101.863 Z6.000
G0 X102.414 Y102.414 Z6.000
G0 X102.414 Y102.414 Z-1.240
G1 X102.414 Y102.414 Z-5.240 F2520.000
G3 X4.933 Y144.752 Z-5.240 I-102.414 J-102.414 F2520.000
G3 X-4.933 Y-144.752 Z-5.240 I-4.933 J-144.752 F2520.000
G3 X102.414 Y102.414 Z-5.240 I4.933 J144.752 F2520.000
G0 X102.414 Y102.414 Z6.000
G0 X102.646 Y102.646 Z6.000
G0 X102.646 Y102.646 Z-1.240
G1 X102.646 Y102.646 Z-5.240 F2520.000
G3 X-5.906 Y145.044 Z-5.240 I-102.646 J-102.646 F2520.000
G3 X5.906 Y-145.044 Z-5.240 I5.906 J-145.044 F2520.000
G3 X102.646 Y102.646 Z-5.240 I-5.906 J145.044 F2520.000
G0 X102.646 Y102.646 Z6.000
G0 X103.198 Y103.198 Z6.000
G0 X103.198 Y103.198 Z-1.240
G1 X103.198 Y103.198 Z-5.240 F2520.000
G3 X-5.937 Y145.823 Z-5.240 I-103.198 J-103.198 F2520.000
G3 X-145.823 Y-5.937 Z-5.240 I5.937 J-145.823 F2520.000
G3 X5.937 Y-145.823 Z-5.240 I145.823 J5.937 F2520.000
G3 X103.198 Y103.198 Z-5.240 I-5.937 J145.823 F2520.000
G0 X103.198 Y103.198 Z6.000
G0 X104.963 Y104.963 Z6.000
G0 X104.963 Y104.963 Z-1.240
G1 X104.963 Y104.963 Z-5.240 F2520.000
G3 X-6.039 Y148.317 Z-5.240 I-104.963 J-104.963 F2520.000
G3 X6.039 Y-148.317 Z-5.240 I6.039 J-148.317 F2520.000
G3 X104.963 Y104.963 Z-5.240 I-6.039 J148.317 F2520.000
G1 X104.963 Y104.963 Z-8.000 F2520.000
G3 X-6.039 Y148.317 Z-8.000 I-104.963 J-104.963 F2520.000
G3 X6.039 Y-148.317 Z-8.000 I6.039 J-148.317 F2520.000
G3 X104.963 Y104.963 Z-8.000 I-6.039 J148.317 F2520.000
G0 X104.963 Y104.963 Z6.000
G0 X103.198 Y103.198 Z6.000
G0 X103.198 Y103.198 Z-4.000
G1 X103.198 Y103.198 Z-8.000 F2520.000
G3 X-5.937 Y145.823 Z-8.000 I-103.198 J-103.198 F2520.000
G3 X-145.823 Y-5.937 Z-8.000 I5.937 J-145.823 F2520.000
G3 X5.937 Y-145.823 Z-8.000 I145.823 J5.937 F2520.000
G3 X103.198 Y103.198 Z-8.000 I-5.937 J145.823 F2520.000
G0 X103.198 Y103.198 Z6.000
G0 X102.646 Y102.646 Z6.000
G0 X102.646 Y102.646 Z-4.000
G1 X102.646 Y102.646 Z-8.000 F2520.000
G3 X-5.906 Y145.044 Z-8.000 I-102.646 J-102.646 F2520.000
G3 X5.906 Y-145.044 Z-8.000 I5.906 J-145.044 F2520.000
G3 X102.646 Y102.646 Z-8.000 I-5.906 J145.044 F2520.000
G0 X102.646 Y102.646 Z6.000
G0 X102.414 Y102.414 Z6.000
G0 X102.414 Y102.414 Z-4.000
G1 X102.414 Y102.414 Z-8.000 F2520.000
G3 X4.933 Y144.752 Z-8.000 I-102.414 J-102.414 F2520.000
G3 X-4.933 Y-144.752 Z-8.000 I-4.933 J-144.752 F2520.000
G3 X102.414 Y102.414 Z-8.000 I4.933 J144.752 F2520.000
G0 X102.414 Y102.414 Z6.000
G0 X101.863 Y101.863 Z6.000
G0 X101.863 Y101.863 Z-4.000
G1 X101.863 Y101.863 Z-8.000 F2520.000
G3 X4.900 Y143.973 Z-8.000 I-101.863 J-101.863 F2520.000
G3 X-4.900 Y-143.973 Z-8.000 I-4.900 J-143.973 F2520.000
G3 X101.863 Y101.863 Z-8.000 I4.900 J143.973 F2520.000
G0 X101.863 Y101.863 Z6.000
G0 X100.098 Y100.098 Z6.000
G0 X100.098 Y100.098 Z-4.000
G1 X100.098 Y100.098 Z-8.000 F2520.000
G3 X4.794 Y141.479 Z-8.000 I-100.098 J-100.098 F2520.000
G3 X-4.794 Y-141.479 Z-8.000 I-4.794 J-141.479 F2520.000
G3 X100.098 Y100.098 Z-8.000 I4.794 J141.479 F2520.000
G0 Z6.000
(finish operation: Pocket_Shape)
(begin operation: Contour)
(machine: not set, mm/min)
(Contour)
(Compensated Tool Path. Diameter: 3.12)
G0 Z6.000
G0 X107.169 Y107.169
G0 Z4.000
G1 X107.169 Y107.169 Z-2.120 F2520.000
G2 X3.713 Y-151.514 Z-2.120 I-107.169 J-107.169 F2520.000
G2 X-151.514 Y-3.713 Z-2.120 I-3.713 J151.514 F2520.000
G2 X-3.713 Y151.514 Z-2.120 I151.514 J3.713 F2520.000
G2 X107.169 Y107.169 Z-2.120 I3.713 J-151.514 F2520.000
G1 X107.169 Y107.169 Z-5.240 F2520.000
G2 X3.713 Y-151.514 Z-5.240 I-107.169 J-107.169 F2520.000
G2 X-151.514 Y-3.713 Z-5.240 I-3.713 J151.514 F2520.000
G2 X-3.713 Y151.514 Z-5.240 I151.514 J3.713 F2520.000
G2 X107.169 Y107.169 Z-5.240 I3.713 J-151.514 F2520.000
G1 X107.169 Y107.169 Z-8.360 F2520.000
G2 X3.713 Y-151.514 Z-8.360 I-107.169 J-107.169 F2520.000
G2 X-151.514 Y-3.713 Z-8.360 I-3.713 J151.514 F2520.000
G2 X-3.713 Y151.514 Z-8.360 I151.514 J3.713 F2520.000
G2 X107.169 Y107.169 Z-8.360 I3.713 J-151.514 F2520.000
G1 X107.169 Y107.169 Z-11.480 F2520.000
G2 X3.713 Y-151.514 Z-11.480 I-107.169 J-107.169 F2520.000
G2 X-151.514 Y-3.713 Z-11.480 I-3.713 J151.514 F2520.000
G2 X-3.713 Y151.514 Z-11.480 I151.514 J3.713 F2520.000
G2 X107.169 Y107.169 Z-11.480 I3.713 J-151.514 F2520.000
G1 X107.169 Y107.169 Z-14.600 F2520.000
G2 X3.713 Y-151.514 Z-14.600 I-107.169 J-107.169 F2520.000
G2 X-151.514 Y-3.713 Z-14.600 I-3.713 J151.514 F2520.000
G2 X-3.713 Y151.514 Z-14.600 I151.514 J3.713 F2520.000
G2 X107.169 Y107.169 Z-14.600 I3.713 J-151.514 F2520.000
G1 X107.169 Y107.169 Z-17.720 F2520.000
G2 X3.713 Y-151.514 Z-17.720 I-107.169 J-107.169 F2520.000
G2 X-151.514 Y-3.713 Z-17.720 I-3.713 J151.514 F2520.000
G2 X-3.713 Y151.514 Z-17.720 I151.514 J3.713 F2520.000
G2 X107.169 Y107.169 Z-17.720 I3.713 J-151.514 F2520.000
G1 X107.169 Y107.169 Z-20.000 F2520.000
G2 X3.713 Y-151.514 Z-20.000 I-107.169 J-107.169 F2520.000
G2 X-151.514 Y-3.713 Z-20.000 I-3.713 J151.514 F2520.000
G2 X-3.713 Y151.514 Z-20.000 I151.514 J3.713 F2520.000
G2 X107.169 Y107.169 Z-20.000 I3.713 J-151.514 F2520.000
G0 Z6.000
(finish operation: Contour)
(begin postamble)
M05
G17 G54 G90 G80 G40
M2
