(Exported by FreeCAD)
(Post Processor: linuxcnc_post)
(Output Time:2019-06-27 20:06:53.665210)
(begin preamble)
G17 G54 G40 G49 G80 G90
G21
(begin operation: T1: 1/8 2 Flute )
(machine: not set, mm/min)
(T1: 1/8 2 Flute )
M6 T1
M3 S6000
(finish operation: T1: 1/8 2 Flute )
(begin operation: Pocket_Shape)
(machine: not set, mm/min)
(Pocket_Shape)
G0 Z5.000
G0 X-96.103 Y-54.007
G0 Z3.000
G1 X-96.103 Y-54.007 Z-3.120 F2400.000
G2 X-94.659 Y-57.620 Z-3.120 I-3.491 J-3.491 F2640.000
G1 X-97.776 Y-57.500 Z-3.120 F2640.000
G1 X-94.659 Y-57.620 Z-3.120 F2640.000
G1 X-94.669 Y-57.878 Z-3.120 F2640.000
G2 X-99.971 Y-62.424 Z-3.120 I-4.924 J0.378 F2640.000
G2 X-104.517 Y-57.122 Z-3.120 I0.378 J4.924 F2640.000
G2 X-96.103 Y-54.007 Z-3.120 I4.923 J-0.376 F2640.000
G0 X-96.103 Y-54.007 Z5.000
G0 X-98.309 Y-56.215 Z5.000
G0 X-98.309 Y-56.215 Z-0.120
G1 X-98.309 Y-56.215 Z-3.120 F2400.000
G2 X-97.776 Y-57.500 Z-3.120 I-1.284 J-1.285 F2640.000
G2 X-99.593 Y-59.317 Z-3.120 I-1.817 J-0.000 F2640.000
G2 X-101.409 Y-57.500 Z-3.120 I0.000 J1.817 F2640.000
G2 X-98.309 Y-56.215 Z-3.120 I1.817 J0.000 F2640.000
G1 X-98.309 Y-56.215 Z-6.240 F2400.000
G2 X-97.776 Y-57.500 Z-6.240 I-1.284 J-1.285 F2640.000
G2 X-99.593 Y-59.317 Z-6.240 I-1.817 J-0.000 F2640.000
G2 X-101.409 Y-57.500 Z-6.240 I0.000 J1.817 F2640.000
G2 X-98.309 Y-56.215 Z-6.240 I1.817 J0.000 F2640.000
G0 X-98.309 Y-56.215 Z5.000
G0 X-97.776 Y-57.500 Z5.000
G0 X-97.776 Y-57.500 Z-3.240
G1 X-97.776 Y-57.500 Z-6.240 F2400.000
G1 X-94.659 Y-57.620 Z-6.240 F2640.000
G1 X-94.669 Y-57.878 Z-6.240 F2640.000
G2 X-99.971 Y-62.424 Z-6.240 I-4.924 J0.378 F2640.000
G2 X-104.517 Y-57.122 Z-6.240 I0.378 J4.924 F2640.000
G2 X-94.659 Y-57.620 Z-6.240 I4.923 J-0.376 F2640.000
G1 X-97.776 Y-57.500 Z-6.240 F2640.000
G1 X-97.776 Y-57.500 Z-9.360 F2400.000
G2 X-99.593 Y-59.317 Z-9.360 I-1.817 J-0.000 F2640.000
G2 X-101.409 Y-57.500 Z-9.360 I0.000 J1.817 F2640.000
G2 X-99.593 Y-55.683 Z-9.360 I1.817 J0.000 F2640.000
G2 X-97.776 Y-57.500 Z-9.360 I0.000 J-1.817 F2640.000
G1 X-97.776 Y-57.500 Z-9.360 F2400.000
G1 X-94.659 Y-57.620 Z-9.360 F2640.000
G1 X-94.669 Y-57.878 Z-9.360 F2640.000
G2 X-99.971 Y-62.424 Z-9.360 I-4.924 J0.378 F2640.000
G2 X-104.517 Y-57.122 Z-9.360 I0.378 J4.924 F2640.000
G2 X-94.659 Y-57.620 Z-9.360 I4.923 J-0.376 F2640.000
G1 X-97.776 Y-57.500 Z-9.360 F2640.000
G1 X-97.776 Y-57.500 Z-12.000 F2400.000
G2 X-99.593 Y-59.317 Z-12.000 I-1.817 J-0.000 F2640.000
G2 X-101.409 Y-57.500 Z-12.000 I0.000 J1.817 F2640.000
G2 X-99.593 Y-55.683 Z-12.000 I1.817 J0.000 F2640.000
G2 X-97.776 Y-57.500 Z-12.000 I0.000 J-1.817 F2640.000
G1 X-97.776 Y-57.500 Z-12.000 F2400.000
G1 X-94.659 Y-57.620 Z-12.000 F2640.000
G1 X-94.669 Y-57.878 Z-12.000 F2640.000
G2 X-99.971 Y-62.424 Z-12.000 I-4.924 J0.378 F2640.000
G2 X-104.517 Y-57.122 Z-12.000 I0.378 J4.924 F2640.000
G2 X-94.659 Y-57.620 Z-12.000 I4.923 J-0.376 F2640.000
G1 X-97.776 Y-57.500 Z-12.000 F2640.000
G0 Z5.000
(finish operation: Pocket_Shape)
(begin operation: Pocket_Shape001)
(machine: not set, mm/min)
(Pocket_Shape001)
G0 Z5.000
G0 X3.493 Y-111.507
G0 Z3.000
G1 X3.493 Y-111.507 Z-3.120 F2400.000
G3 X0.189 Y-110.065 Z-3.120 I-3.491 J-3.491 F2640.000
G3 X-4.935 Y-114.811 Z-3.120 I-0.189 J-4.935 F2640.000
G3 X-0.189 Y-119.935 Z-3.120 I4.935 J-0.189 F2640.000
G1 X-0.070 Y-119.935 Z-3.120 F2640.000
G1 X-0.070 Y-116.815 Z-3.120 F2640.000
G1 X-0.070 Y-119.935 Z-3.120 F2640.000
G3 X3.493 Y-111.507 Z-3.120 I0.071 J4.937 F2640.000
G0 X3.493 Y-111.507 Z5.000
G0 X1.285 Y-113.715 Z5.000
G0 X1.285 Y-113.715 Z-0.120
G1 X1.285 Y-113.715 Z-3.120 F2400.000
G2 X-0.070 Y-116.815 Z-3.120 I-1.285 J-1.285 F2640.000
G2 X0.070 Y-113.185 Z-3.120 I0.070 J1.815 F2640.000
G2 X-0.070 Y-116.815 Z-3.120 I-0.070 J-1.815 F2640.000
G2 X0.070 Y-113.185 Z-3.120 I0.070 J1.815 F2640.000
G2 X1.285 Y-113.715 Z-3.120 I-0.070 J-1.815 F2640.000
G1 X1.285 Y-113.715 Z-6.240 F2400.000
G2 X-0.070 Y-116.815 Z-6.240 I-1.285 J-1.285 F2640.000
G2 X0.070 Y-113.185 Z-6.240 I0.070 J1.815 F2640.000
G2 X-0.070 Y-116.815 Z-6.240 I-0.070 J-1.815 F2640.000
G2 X0.070 Y-113.185 Z-6.240 I0.070 J1.815 F2640.000
G2 X1.285 Y-113.715 Z-6.240 I-0.070 J-1.815 F2640.000
G0 X1.285 Y-113.715 Z5.000
G0 X3.493 Y-111.507 Z5.000
G0 X3.493 Y-111.507 Z-3.240
G1 X3.493 Y-111.507 Z-6.240 F2400.000
G3 X0.189 Y-110.065 Z-6.240 I-3.491 J-3.491 F2640.000
G3 X-4.935 Y-114.811 Z-6.240 I-0.189 J-4.935 F2640.000
G3 X-0.189 Y-119.935 Z-6.240 I4.935 J-0.189 F2640.000
G1 X-0.070 Y-119.935 Z-6.240 F2640.000
G1 X-0.070 Y-116.815 Z-6.240 F2640.000
G1 X-0.070 Y-119.935 Z-6.240 F2640.000
G3 X3.493 Y-111.507 Z-6.240 I0.071 J4.937 F2640.000
G1 X3.493 Y-111.507 Z-9.360 F2400.000
G3 X0.189 Y-110.065 Z-9.360 I-3.491 J-3.491 F2640.000
G3 X-4.935 Y-114.811 Z-9.360 I-0.189 J-4.935 F2640.000
G3 X-0.189 Y-119.935 Z-9.360 I4.935 J-0.189 F2640.000
G1 X-0.070 Y-119.935 Z-9.360 F2640.000
G1 X-0.070 Y-116.815 Z-9.360 F2640.000
G1 X-0.070 Y-119.935 Z-9.360 F2640.000
G3 X3.493 Y-111.507 Z-9.360 I0.071 J4.937 F2640.000
G0 X3.493 Y-111.507 Z5.000
G0 X1.284 Y-113.715 Z5.000
G0 X1.284 Y-113.715 Z-6.360
G1 X1.284 Y-113.715 Z-9.360 F2400.000
G2 X-0.070 Y-116.815 Z-9.360 I-1.284 J-1.285 F2640.000
G2 X0.070 Y-113.185 Z-9.360 I0.070 J1.815 F2640.000
G2 X-0.070 Y-116.815 Z-9.360 I-0.070 J-1.815 F2640.000
G2 X0.070 Y-113.185 Z-9.360 I0.070 J1.815 F2640.000
G2 X1.284 Y-113.715 Z-9.360 I-0.070 J-1.815 F2640.000
G1 X1.284 Y-113.715 Z-12.000 F2400.000
G2 X-0.070 Y-116.815 Z-12.000 I-1.284 J-1.285 F2640.000
G2 X0.070 Y-113.185 Z-12.000 I0.070 J1.815 F2640.000
G2 X-0.070 Y-116.815 Z-12.000 I-0.070 J-1.815 F2640.000
G2 X0.070 Y-113.185 Z-12.000 I0.070 J1.815 F2640.000
G2 X1.284 Y-113.715 Z-12.000 I-0.070 J-1.815 F2640.000
G0 X1.284 Y-113.715 Z5.000
G0 X3.493 Y-111.507 Z5.000
G0 X3.493 Y-111.507 Z-9.000
G1 X3.493 Y-111.507 Z-12.000 F2400.000
G3 X0.189 Y-110.065 Z-12.000 I-3.491 J-3.491 F2640.000
G3 X-4.935 Y-114.811 Z-12.000 I-0.189 J-4.935 F2640.000
G3 X-0.189 Y-119.935 Z-12.000 I4.935 J-0.189 F2640.000
G1 X-0.070 Y-119.935 Z-12.000 F2640.000
G1 X-0.070 Y-116.815 Z-12.000 F2640.000
G1 X-0.070 Y-119.935 Z-12.000 F2640.000
G3 X3.493 Y-111.507 Z-12.000 I0.071 J4.937 F2640.000
G0 Z5.000
(finish operation: Pocket_Shape001)
(begin operation: Pocket_Shape002)
(machine: not set, mm/min)
(Pocket_Shape002)
G0 Z5.000
G0 X103.086 Y-54.007
G0 Z3.000
G1 X103.086 Y-54.007 Z-3.120 F2400.000
G3 X99.782 Y-52.565 Z-3.120 I-3.491 J-3.491 F2640.000
G3 X94.658 Y-57.311 Z-3.120 I-0.189 J-4.935 F2640.000
G3 X99.404 Y-62.435 Z-3.120 I4.935 J-0.189 F2640.000
G1 X99.523 Y-62.435 Z-3.120 F2640.000
G1 X99.523 Y-59.315 Z-3.120 F2640.000
G1 X99.523 Y-62.435 Z-3.120 F2640.000
G3 X103.086 Y-54.007 Z-3.120 I0.071 J4.937 F2640.000
G0 X103.086 Y-54.007 Z5.000
G0 X100.877 Y-56.215 Z5.000
G0 X100.877 Y-56.215 Z-0.120
G1 X100.877 Y-56.215 Z-3.120 F2400.000
G2 X99.523 Y-59.315 Z-3.120 I-1.285 J-1.285 F2640.000
G2 X99.662 Y-55.685 Z-3.120 I0.070 J1.815 F2640.000
G2 X99.523 Y-59.315 Z-3.120 I-0.070 J-1.815 F2640.000
G2 X99.662 Y-55.685 Z-3.120 I0.070 J1.815 F2640.000
G2 X100.877 Y-56.215 Z-3.120 I-0.070 J-1.815 F2640.000
G1 X100.877 Y-56.215 Z-6.240 F2400.000
G2 X99.523 Y-59.315 Z-6.240 I-1.285 J-1.285 F2640.000
G2 X99.662 Y-55.685 Z-6.240 I0.070 J1.815 F2640.000
G2 X99.523 Y-59.315 Z-6.240 I-0.070 J-1.815 F2640.000
G2 X99.662 Y-55.685 Z-6.240 I0.070 J1.815 F2640.000
G2 X100.877 Y-56.215 Z-6.240 I-0.070 J-1.815 F2640.000
G0 X100.877 Y-56.215 Z5.000
G0 X103.086 Y-54.007 Z5.000
G0 X103.086 Y-54.007 Z-3.240
G1 X103.086 Y-54.007 Z-6.240 F2400.000
G3 X99.782 Y-52.565 Z-6.240 I-3.491 J-3.491 F2640.000
G3 X94.658 Y-57.311 Z-6.240 I-0.189 J-4.935 F2640.000
G3 X99.404 Y-62.435 Z-6.240 I4.935 J-0.189 F2640.000
G1 X99.523 Y-62.435 Z-6.240 F2640.000
G1 X99.523 Y-59.315 Z-6.240 F2640.000
G1 X99.523 Y-62.435 Z-6.240 F2640.000
G3 X103.086 Y-54.007 Z-6.240 I0.071 J4.937 F2640.000
G1 X103.086 Y-54.007 Z-9.360 F2400.000
G3 X99.782 Y-52.565 Z-9.360 I-3.491 J-3.491 F2640.000
G3 X94.658 Y-57.311 Z-9.360 I-0.189 J-4.935 F2640.000
G3 X99.404 Y-62.435 Z-9.360 I4.935 J-0.189 F2640.000
G1 X99.523 Y-62.435 Z-9.360 F2640.000
G1 X99.523 Y-59.315 Z-9.360 F2640.000
G1 X99.523 Y-62.435 Z-9.360 F2640.000
G3 X103.086 Y-54.007 Z-9.360 I0.071 J4.937 F2640.000
G0 X103.086 Y-54.007 Z5.000
G0 X100.877 Y-56.215 Z5.000
G0 X100.877 Y-56.215 Z-6.360
G1 X100.877 Y-56.215 Z-9.360 F2400.000
G2 X99.523 Y-59.315 Z-9.360 I-1.284 J-1.285 F2640.000
G2 X99.662 Y-55.685 Z-9.360 I0.070 J1.815 F2640.000
G2 X99.523 Y-59.315 Z-9.360 I-0.070 J-1.815 F2640.000
G2 X99.662 Y-55.685 Z-9.360 I0.070 J1.815 F2640.000
G2 X100.877 Y-56.215 Z-9.360 I-0.070 J-1.815 F2640.000
G1 X100.877 Y-56.215 Z-12.000 F2400.000
G2 X99.523 Y-59.315 Z-12.000 I-1.284 J-1.285 F2640.000
G2 X99.662 Y-55.685 Z-12.000 I0.070 J1.815 F2640.000
G2 X99.523 Y-59.315 Z-12.000 I-0.070 J-1.815 F2640.000
G2 X99.662 Y-55.685 Z-12.000 I0.070 J1.815 F2640.000
G2 X100.877 Y-56.215 Z-12.000 I-0.070 J-1.815 F2640.000
G0 X100.877 Y-56.215 Z5.000
G0 X103.086 Y-54.007 Z5.000
G0 X103.086 Y-54.007 Z-9.000
G1 X103.086 Y-54.007 Z-12.000 F2400.000
G3 X99.782 Y-52.565 Z-12.000 I-3.491 J-3.491 F2640.000
G3 X94.658 Y-57.311 Z-12.000 I-0.189 J-4.935 F2640.000
G3 X99.404 Y-62.435 Z-12.000 I4.935 J-0.189 F2640.000
G1 X99.523 Y-62.435 Z-12.000 F2640.000
G1 X99.523 Y-59.315 Z-12.000 F2640.000
G1 X99.523 Y-62.435 Z-12.000 F2640.000
G3 X103.086 Y-54.007 Z-12.000 I0.071 J4.937 F2640.000
G0 Z5.000
(finish operation: Pocket_Shape002)
(begin operation: Pocket_Shape003)
(machine: not set, mm/min)
(Pocket_Shape003)
G0 Z5.000
G0 X103.086 Y60.993
G0 Z3.000
G1 X103.086 Y60.993 Z-3.120 F2400.000
G3 X99.782 Y62.435 Z-3.120 I-3.491 J-3.491 F2640.000
G3 X99.404 Y52.565 Z-3.120 I-0.189 J-4.935 F2640.000
G1 X99.523 Y52.565 Z-3.120 F2640.000
G1 X99.523 Y55.685 Z-3.120 F2640.000
G1 X99.523 Y52.565 Z-3.120 F2640.000
G3 X103.086 Y60.993 Z-3.120 I0.071 J4.937 F2640.000
G0 X103.086 Y60.993 Z5.000
G0 X100.877 Y58.785 Z5.000
G0 X100.877 Y58.785 Z-0.120
G1 X100.877 Y58.785 Z-3.120 F2400.000
G2 X99.523 Y55.685 Z-3.120 I-1.285 J-1.285 F2640.000
G2 X99.662 Y59.315 Z-3.120 I0.070 J1.815 F2640.000
G2 X99.523 Y55.685 Z-3.120 I-0.070 J-1.815 F2640.000
G2 X99.662 Y59.315 Z-3.120 I0.070 J1.815 F2640.000
G2 X100.877 Y58.785 Z-3.120 I-0.070 J-1.815 F2640.000
G1 X100.877 Y58.785 Z-6.240 F2400.000
G2 X99.523 Y55.685 Z-6.240 I-1.285 J-1.285 F2640.000
G2 X99.662 Y59.315 Z-6.240 I0.070 J1.815 F2640.000
G2 X99.523 Y55.685 Z-6.240 I-0.070 J-1.815 F2640.000
G2 X99.662 Y59.315 Z-6.240 I0.070 J1.815 F2640.000
G2 X100.877 Y58.785 Z-6.240 I-0.070 J-1.815 F2640.000
G0 X100.877 Y58.785 Z5.000
G0 X103.086 Y60.993 Z5.000
G0 X103.086 Y60.993 Z-3.240
G1 X103.086 Y60.993 Z-6.240 F2400.000
G3 X99.782 Y62.435 Z-6.240 I-3.491 J-3.491 F2640.000
G3 X99.404 Y52.565 Z-6.240 I-0.189 J-4.935 F2640.000
G1 X99.523 Y52.565 Z-6.240 F2640.000
G1 X99.523 Y55.685 Z-6.240 F2640.000
G1 X99.523 Y52.565 Z-6.240 F2640.000
G3 X103.086 Y60.993 Z-6.240 I0.071 J4.937 F2640.000
G1 X103.086 Y60.993 Z-9.360 F2400.000
G3 X99.782 Y62.435 Z-9.360 I-3.491 J-3.491 F2640.000
G3 X99.404 Y52.565 Z-9.360 I-0.189 J-4.935 F2640.000
G1 X99.523 Y52.565 Z-9.360 F2640.000
G1 X99.523 Y55.685 Z-9.360 F2640.000
G1 X99.523 Y52.565 Z-9.360 F2640.000
G3 X103.086 Y60.993 Z-9.360 I0.071 J4.937 F2640.000
G0 X103.086 Y60.993 Z5.000
G0 X100.877 Y58.785 Z5.000
G0 X100.877 Y58.785 Z-6.360
G1 X100.877 Y58.785 Z-9.360 F2400.000
G2 X99.523 Y55.685 Z-9.360 I-1.284 J-1.285 F2640.000
G2 X99.662 Y59.315 Z-9.360 I0.070 J1.815 F2640.000
G2 X99.523 Y55.685 Z-9.360 I-0.070 J-1.815 F2640.000
G2 X99.662 Y59.315 Z-9.360 I0.070 J1.815 F2640.000
G2 X100.877 Y58.785 Z-9.360 I-0.070 J-1.815 F2640.000
G1 X100.877 Y58.785 Z-12.000 F2400.000
G2 X99.523 Y55.685 Z-12.000 I-1.284 J-1.285 F2640.000
G2 X99.662 Y59.315 Z-12.000 I0.070 J1.815 F2640.000
G2 X99.523 Y55.685 Z-12.000 I-0.070 J-1.815 F2640.000
G2 X99.662 Y59.315 Z-12.000 I0.070 J1.815 F2640.000
G2 X100.877 Y58.785 Z-12.000 I-0.070 J-1.815 F2640.000
G0 X100.877 Y58.785 Z5.000
G0 X103.086 Y60.993 Z5.000
G0 X103.086 Y60.993 Z-9.000
G1 X103.086 Y60.993 Z-12.000 F2400.000
G3 X99.782 Y62.435 Z-12.000 I-3.491 J-3.491 F2640.000
G3 X99.404 Y52.565 Z-12.000 I-0.189 J-4.935 F2640.000
G1 X99.523 Y52.565 Z-12.000 F2640.000
G1 X99.523 Y55.685 Z-12.000 F2640.000
G1 X99.523 Y52.565 Z-12.000 F2640.000
G3 X103.086 Y60.993 Z-12.000 I0.071 J4.937 F2640.000
G0 Z5.000
(finish operation: Pocket_Shape003)
(begin operation: Pocket_Shape004)
(machine: not set, mm/min)
(Pocket_Shape004)
G0 Z5.000
G0 X3.493 Y118.493
G0 Z3.000
G1 X3.493 Y118.493 Z-3.120 F2400.000
G3 X0.189 Y119.935 Z-3.120 I-3.491 J-3.491 F2640.000
G3 X-4.935 Y115.189 Z-3.120 I-0.189 J-4.935 F2640.000
G3 X-0.189 Y110.065 Z-3.120 I4.935 J-0.189 F2640.000
G1 X-0.070 Y110.065 Z-3.120 F2640.000
G1 X-0.070 Y113.185 Z-3.120 F2640.000
G1 X-0.070 Y110.065 Z-3.120 F2640.000
G3 X3.493 Y118.493 Z-3.120 I0.071 J4.937 F2640.000
G0 X3.493 Y118.493 Z5.000
G0 X1.285 Y116.285 Z5.000
G0 X1.285 Y116.285 Z-0.120
G1 X1.285 Y116.285 Z-3.120 F2400.000
G2 X-0.070 Y113.185 Z-3.120 I-1.285 J-1.285 F2640.000
G2 X0.070 Y116.815 Z-3.120 I0.070 J1.815 F2640.000
G2 X-0.070 Y113.185 Z-3.120 I-0.070 J-1.815 F2640.000
G2 X0.070 Y116.815 Z-3.120 I0.070 J1.815 F2640.000
G2 X1.285 Y116.285 Z-3.120 I-0.070 J-1.815 F2640.000
G1 X1.285 Y116.285 Z-6.240 F2400.000
G2 X-0.070 Y113.185 Z-6.240 I-1.285 J-1.285 F2640.000
G2 X0.070 Y116.815 Z-6.240 I0.070 J1.815 F2640.000
G2 X-0.070 Y113.185 Z-6.240 I-0.070 J-1.815 F2640.000
G2 X0.070 Y116.815 Z-6.240 I0.070 J1.815 F2640.000
G2 X1.285 Y116.285 Z-6.240 I-0.070 J-1.815 F2640.000
G0 X1.285 Y116.285 Z5.000
G0 X3.493 Y118.493 Z5.000
G0 X3.493 Y118.493 Z-3.240
G1 X3.493 Y118.493 Z-6.240 F2400.000
G3 X0.189 Y119.935 Z-6.240 I-3.491 J-3.491 F2640.000
G3 X-4.935 Y115.189 Z-6.240 I-0.189 J-4.935 F2640.000
G3 X-0.189 Y110.065 Z-6.240 I4.935 J-0.189 F2640.000
G1 X-0.070 Y110.065 Z-6.240 F2640.000
G1 X-0.070 Y113.185 Z-6.240 F2640.000
G1 X-0.070 Y110.065 Z-6.240 F2640.000
G3 X3.493 Y118.493 Z-6.240 I0.071 J4.937 F2640.000
G1 X3.493 Y118.493 Z-9.360 F2400.000
G3 X0.189 Y119.935 Z-9.360 I-3.491 J-3.491 F2640.000
G3 X-4.935 Y115.189 Z-9.360 I-0.189 J-4.935 F2640.000
G3 X-0.189 Y110.065 Z-9.360 I4.935 J-0.189 F2640.000
G1 X-0.070 Y110.065 Z-9.360 F2640.000
G1 X-0.070 Y113.185 Z-9.360 F2640.000
G1 X-0.070 Y110.065 Z-9.360 F2640.000
G3 X3.493 Y118.493 Z-9.360 I0.071 J4.937 F2640.000
G0 X3.493 Y118.493 Z5.000
G0 X1.284 Y116.285 Z5.000
G0 X1.284 Y116.285 Z-6.360
G1 X1.284 Y116.285 Z-9.360 F2400.000
G2 X-0.070 Y113.185 Z-9.360 I-1.284 J-1.285 F2640.000
G2 X0.070 Y116.815 Z-9.360 I0.070 J1.815 F2640.000
G2 X-0.070 Y113.185 Z-9.360 I-0.070 J-1.815 F2640.000
G2 X0.070 Y116.815 Z-9.360 I0.070 J1.815 F2640.000
G2 X1.284 Y116.285 Z-9.360 I-0.070 J-1.815 F2640.000
G1 X1.284 Y116.285 Z-12.000 F2400.000
G2 X-0.070 Y113.185 Z-12.000 I-1.284 J-1.285 F2640.000
G2 X0.070 Y116.815 Z-12.000 I0.070 J1.815 F2640.000
G2 X-0.070 Y113.185 Z-12.000 I-0.070 J-1.815 F2640.000
G2 X0.070 Y116.815 Z-12.000 I0.070 J1.815 F2640.000
G2 X1.284 Y116.285 Z-12.000 I-0.070 J-1.815 F2640.000
G0 X1.284 Y116.285 Z5.000
G0 X3.493 Y118.493 Z5.000
G0 X3.493 Y118.493 Z-9.000
G1 X3.493 Y118.493 Z-12.000 F2400.000
G3 X0.189 Y119.935 Z-12.000 I-3.491 J-3.491 F2640.000
G3 X-4.935 Y115.189 Z-12.000 I-0.189 J-4.935 F2640.000
G3 X-0.189 Y110.065 Z-12.000 I4.935 J-0.189 F2640.000
G1 X-0.070 Y110.065 Z-12.000 F2640.000
G1 X-0.070 Y113.185 Z-12.000 F2640.000
G1 X-0.070 Y110.065 Z-12.000 F2640.000
G3 X3.493 Y118.493 Z-12.000 I0.071 J4.937 F2640.000
G0 Z5.000
(finish operation: Pocket_Shape004)
(begin operation: Pocket_Shape005)
(machine: not set, mm/min)
(Pocket_Shape005)
G0 Z5.000
G0 X-96.103 Y60.993
G0 Z3.000
G1 X-96.103 Y60.993 Z-3.120 F2400.000
G2 X-94.659 Y57.380 Z-3.120 I-3.491 J-3.491 F2640.000
G1 X-97.776 Y57.500 Z-3.120 F2640.000
G1 X-94.659 Y57.380 Z-3.120 F2640.000
G1 X-94.669 Y57.122 Z-3.120 F2640.000
G2 X-99.971 Y52.576 Z-3.120 I-4.924 J0.378 F2640.000
G2 X-104.517 Y57.878 Z-3.120 I0.378 J4.924 F2640.000
G2 X-96.103 Y60.993 Z-3.120 I4.923 J-0.376 F2640.000
G0 X-96.103 Y60.993 Z5.000
G0 X-98.309 Y58.785 Z5.000
G0 X-98.309 Y58.785 Z-0.120
G1 X-98.309 Y58.785 Z-3.120 F2400.000
G2 X-97.776 Y57.500 Z-3.120 I-1.284 J-1.285 F2640.000
G2 X-99.593 Y55.683 Z-3.120 I-1.817 J-0.000 F2640.000
G2 X-101.409 Y57.500 Z-3.120 I0.000 J1.817 F2640.000
G2 X-98.309 Y58.785 Z-3.120 I1.817 J0.000 F2640.000
G1 X-98.309 Y58.785 Z-6.240 F2400.000
G2 X-97.776 Y57.500 Z-6.240 I-1.284 J-1.285 F2640.000
G2 X-99.593 Y55.683 Z-6.240 I-1.817 J-0.000 F2640.000
G2 X-101.409 Y57.500 Z-6.240 I0.000 J1.817 F2640.000
G2 X-98.309 Y58.785 Z-6.240 I1.817 J0.000 F2640.000
G0 X-98.309 Y58.785 Z5.000
G0 X-97.776 Y57.500 Z5.000
G0 X-97.776 Y57.500 Z-3.240
G1 X-97.776 Y57.500 Z-6.240 F2400.000
G1 X-94.659 Y57.380 Z-6.240 F2640.000
G1 X-94.669 Y57.122 Z-6.240 F2640.000
G2 X-99.971 Y52.576 Z-6.240 I-4.924 J0.378 F2640.000
G2 X-104.517 Y57.878 Z-6.240 I0.378 J4.924 F2640.000
G2 X-94.659 Y57.380 Z-6.240 I4.923 J-0.376 F2640.000
G1 X-97.776 Y57.500 Z-6.240 F2640.000
G1 X-97.776 Y57.500 Z-9.360 F2400.000
G1 X-94.659 Y57.380 Z-9.360 F2640.000
G1 X-94.669 Y57.122 Z-9.360 F2640.000
G2 X-99.971 Y52.576 Z-9.360 I-4.924 J0.378 F2640.000
G2 X-104.517 Y57.878 Z-9.360 I0.378 J4.924 F2640.000
G2 X-94.659 Y57.380 Z-9.360 I4.923 J-0.376 F2640.000
G1 X-97.776 Y57.500 Z-9.360 F2640.000
G1 X-97.776 Y57.500 Z-9.360 F2400.000
G2 X-99.593 Y55.683 Z-9.360 I-1.817 J-0.000 F2640.000
G2 X-101.409 Y57.500 Z-9.360 I0.000 J1.817 F2640.000
G2 X-99.593 Y59.317 Z-9.360 I1.817 J0.000 F2640.000
G2 X-97.776 Y57.500 Z-9.360 I0.000 J-1.817 F2640.000
G1 X-97.776 Y57.500 Z-12.000 F2400.000
G2 X-99.593 Y55.683 Z-12.000 I-1.817 J-0.000 F2640.000
G2 X-101.409 Y57.500 Z-12.000 I0.000 J1.817 F2640.000
G2 X-99.593 Y59.317 Z-12.000 I1.817 J0.000 F2640.000
G2 X-97.776 Y57.500 Z-12.000 I0.000 J-1.817 F2640.000
G1 X-97.776 Y57.500 Z-12.000 F2400.000
G1 X-94.659 Y57.380 Z-12.000 F2640.000
G1 X-94.669 Y57.122 Z-12.000 F2640.000
G2 X-99.971 Y52.576 Z-12.000 I-4.924 J0.378 F2640.000
G2 X-104.517 Y57.878 Z-12.000 I0.378 J4.924 F2640.000
G2 X-94.659 Y57.380 Z-12.000 I4.923 J-0.376 F2640.000
G1 X-97.776 Y57.500 Z-12.000 F2640.000
G0 Z5.000
(finish operation: Pocket_Shape005)
(begin operation: Profile_Faces)
(machine: not set, mm/min)
(Profile_Faces)
(Compensated Tool Path. Diameter: 3.12)
G0 Z5.000
G0 X71.375 Y71.375
G0 Z3.000
G1 X71.375 Y71.375 Z-3.120 F2400.000
G2 X3.963 Y-100.862 Z-3.120 I-71.375 J-71.375 F2640.000
G2 X-3.963 Y100.862 Z-3.120 I-3.963 J100.862 F2640.000
G2 X71.375 Y71.375 Z-3.120 I3.963 J-100.862 F2640.000
G1 X71.375 Y71.375 Z-6.240 F2400.000
G2 X3.963 Y-100.862 Z-6.240 I-71.375 J-71.375 F2640.000
G2 X-3.963 Y100.862 Z-6.240 I-3.963 J100.862 F2640.000
G2 X71.375 Y71.375 Z-6.240 I3.963 J-100.862 F2640.000
G1 X71.375 Y71.375 Z-9.360 F2400.000
G2 X3.963 Y-100.862 Z-9.360 I-71.375 J-71.375 F2640.000
G2 X-3.963 Y100.862 Z-9.360 I-3.963 J100.862 F2640.000
G2 X71.375 Y71.375 Z-9.360 I3.963 J-100.862 F2640.000
G1 X71.375 Y71.375 Z-12.480 F2400.000
G2 X3.963 Y-100.862 Z-12.480 I-71.375 J-71.375 F2640.000
G2 X-3.963 Y100.862 Z-12.480 I-3.963 J100.862 F2640.000
G2 X71.375 Y71.375 Z-12.480 I3.963 J-100.862 F2640.000
G1 X71.375 Y71.375 Z-15.600 F2400.000
G2 X3.963 Y-100.862 Z-15.600 I-71.375 J-71.375 F2640.000
G2 X-3.963 Y100.862 Z-15.600 I-3.963 J100.862 F2640.000
G2 X71.375 Y71.375 Z-15.600 I3.963 J-100.862 F2640.000
G1 X71.375 Y71.375 Z-18.300 F2400.000
G2 X3.963 Y-100.862 Z-18.300 I-71.375 J-71.375 F2640.000
G2 X-3.963 Y100.862 Z-18.300 I-3.963 J100.862 F2640.000
G2 X71.375 Y71.375 Z-18.300 I3.963 J-100.862 F2640.000
G0 Z5.000
(finish operation: Profile_Faces)
(begin operation: Contour)
(machine: not set, mm/min)
(Contour)
(Compensated Tool Path. Diameter: 3.12)
G0 Z5.000
G0 X103.452 Y85.021
G0 Z3.000
G1 X103.452 Y85.021 Z-3.120 F2400.000
G2 X104.009 Y84.582 Z-3.120 I-0.661 J-1.413 F2640.000
G2 X126.311 Y44.918 Z-3.120 I-104.009 J-84.582 F2640.000
G2 X125.612 Y43.024 Z-3.120 I-1.465 J-0.535 F2640.000
G1 X111.207 Y34.901 Z-3.120 F2640.000
G2 X108.807 Y-41.794 Z-3.120 I-111.148 J-34.907 F2640.000
G1 X124.453 Y-44.716 Z-3.120 F2640.000
G2 X125.623 Y-46.807 Z-3.120 I-0.286 J-1.533 F2640.000
G2 X104.009 Y-84.582 Z-3.120 I-125.623 J46.807 F2640.000
G2 X101.734 Y-84.756 Z-3.120 I-1.219 J0.974 F2640.000
G1 X90.051 Y-74.002 Z-3.120 F2640.000
G2 X24.482 Y-113.955 Z-3.120 I-90.014 J73.945 F2640.000
G1 X26.547 Y-129.920 Z-3.120 F2640.000
G2 X25.281 Y-131.655 Z-3.120 I-1.547 J-0.200 F2640.000
G2 X4.639 Y-133.980 Z-3.120 I-25.281 J131.655 F2640.000
G2 X-25.281 Y-131.655 Z-3.120 I-4.639 J133.980 F2640.000
G2 X-26.547 Y-129.920 Z-3.120 I0.281 J1.534 F2640.000
G1 X-24.482 Y-113.956 Z-3.120 F2640.000
G2 X-90.051 Y-74.002 Z-3.120 I24.446 J113.898 F2640.000
G1 X-101.734 Y-84.756 Z-3.120 F2640.000
G2 X-104.009 Y-84.582 Z-3.120 I-1.057 J1.148 F2640.000
G2 X-125.623 Y-46.807 Z-3.120 I104.009 J84.582 F2640.000
G2 X-124.453 Y-44.716 Z-3.120 I1.457 J0.557 F2640.000
G1 X-108.808 Y-41.794 Z-3.120 F2640.000
G2 X-111.207 Y34.901 Z-3.120 I108.749 J41.787 F2640.000
G1 X-125.612 Y43.024 Z-3.120 F2640.000
G2 X-126.311 Y44.918 Z-3.120 I0.766 J1.359 F2640.000
G2 X-104.009 Y84.582 Z-3.120 I126.311 J-44.918 F2640.000
G2 X-101.734 Y84.756 Z-3.120 I1.219 J-0.974 F2640.000
G1 X-90.051 Y74.002 Z-3.120 F2640.000
G2 X-24.482 Y113.955 Z-3.120 I90.014 J-73.945 F2640.000
G1 X-26.547 Y129.920 Z-3.120 F2640.000
G2 X-25.281 Y131.655 Z-3.120 I1.547 J0.200 F2640.000
G2 X25.281 Y131.655 Z-3.120 I25.281 J-131.655 F2640.000
G2 X26.547 Y129.920 Z-3.120 I-0.281 J-1.534 F2640.000
G1 X24.482 Y113.956 Z-3.120 F2640.000
G2 X90.051 Y74.002 Z-3.120 I-24.446 J-113.898 F2640.000
G1 X101.734 Y84.756 Z-3.120 F2640.000
G2 X103.452 Y85.021 Z-3.120 I1.057 J-1.148 F2640.000
G1 X103.452 Y85.021 Z-6.240 F2400.000
G2 X104.009 Y84.582 Z-6.240 I-0.661 J-1.413 F2640.000
G2 X126.311 Y44.918 Z-6.240 I-104.009 J-84.582 F2640.000
G2 X125.612 Y43.024 Z-6.240 I-1.465 J-0.535 F2640.000
G1 X111.207 Y34.901 Z-6.240 F2640.000
G2 X108.807 Y-41.794 Z-6.240 I-111.148 J-34.907 F2640.000
G1 X124.453 Y-44.716 Z-6.240 F2640.000
G2 X125.623 Y-46.807 Z-6.240 I-0.286 J-1.533 F2640.000
G2 X104.009 Y-84.582 Z-6.240 I-125.623 J46.807 F2640.000
G2 X101.734 Y-84.756 Z-6.240 I-1.219 J0.974 F2640.000
G1 X90.051 Y-74.002 Z-6.240 F2640.000
G2 X24.482 Y-113.955 Z-6.240 I-90.014 J73.945 F2640.000
G1 X26.547 Y-129.920 Z-6.240 F2640.000
G2 X25.281 Y-131.655 Z-6.240 I-1.547 J-0.200 F2640.000
G2 X4.639 Y-133.980 Z-6.240 I-25.281 J131.655 F2640.000
G2 X-25.281 Y-131.655 Z-6.240 I-4.639 J133.980 F2640.000
G2 X-26.547 Y-129.920 Z-6.240 I0.281 J1.534 F2640.000
G1 X-24.482 Y-113.956 Z-6.240 F2640.000
G2 X-90.051 Y-74.002 Z-6.240 I24.446 J113.898 F2640.000
G1 X-101.734 Y-84.756 Z-6.240 F2640.000
G2 X-104.009 Y-84.582 Z-6.240 I-1.057 J1.148 F2640.000
G2 X-125.623 Y-46.807 Z-6.240 I104.009 J84.582 F2640.000
G2 X-124.453 Y-44.716 Z-6.240 I1.457 J0.557 F2640.000
G1 X-108.808 Y-41.794 Z-6.240 F2640.000
G2 X-111.207 Y34.901 Z-6.240 I108.749 J41.787 F2640.000
G1 X-125.612 Y43.024 Z-6.240 F2640.000
G2 X-126.311 Y44.918 Z-6.240 I0.766 J1.359 F2640.000
G2 X-104.009 Y84.582 Z-6.240 I126.311 J-44.918 F2640.000
G2 X-101.734 Y84.756 Z-6.240 I1.219 J-0.974 F2640.000
G1 X-90.051 Y74.002 Z-6.240 F2640.000
G2 X-24.482 Y113.955 Z-6.240 I90.014 J-73.945 F2640.000
G1 X-26.547 Y129.920 Z-6.240 F2640.000
G2 X-25.281 Y131.655 Z-6.240 I1.547 J0.200 F2640.000
G2 X25.281 Y131.655 Z-6.240 I25.281 J-131.655 F2640.000
G2 X26.547 Y129.920 Z-6.240 I-0.281 J-1.534 F2640.000
G1 X24.482 Y113.956 Z-6.240 F2640.000
G2 X90.051 Y74.002 Z-6.240 I-24.446 J-113.898 F2640.000
G1 X101.734 Y84.756 Z-6.240 F2640.000
G2 X103.452 Y85.021 Z-6.240 I1.057 J-1.148 F2640.000
G1 X103.452 Y85.021 Z-9.360 F2400.000
G2 X104.009 Y84.582 Z-9.360 I-0.661 J-1.413 F2640.000
G2 X126.311 Y44.918 Z-9.360 I-104.009 J-84.582 F2640.000
G2 X125.612 Y43.024 Z-9.360 I-1.465 J-0.535 F2640.000
G1 X111.207 Y34.901 Z-9.360 F2640.000
G2 X108.807 Y-41.794 Z-9.360 I-111.148 J-34.907 F2640.000
G1 X124.453 Y-44.716 Z-9.360 F2640.000
G2 X125.623 Y-46.807 Z-9.360 I-0.286 J-1.533 F2640.000
G2 X104.009 Y-84.582 Z-9.360 I-125.623 J46.807 F2640.000
G2 X101.734 Y-84.756 Z-9.360 I-1.219 J0.974 F2640.000
G1 X90.051 Y-74.002 Z-9.360 F2640.000
G2 X24.482 Y-113.955 Z-9.360 I-90.014 J73.945 F2640.000
G1 X26.547 Y-129.920 Z-9.360 F2640.000
G2 X25.281 Y-131.655 Z-9.360 I-1.547 J-0.200 F2640.000
G2 X4.639 Y-133.980 Z-9.360 I-25.281 J131.655 F2640.000
G2 X-25.281 Y-131.655 Z-9.360 I-4.639 J133.980 F2640.000
G2 X-26.547 Y-129.920 Z-9.360 I0.281 J1.534 F2640.000
G1 X-24.482 Y-113.956 Z-9.360 F2640.000
G2 X-90.051 Y-74.002 Z-9.360 I24.446 J113.898 F2640.000
G1 X-101.734 Y-84.756 Z-9.360 F2640.000
G2 X-104.009 Y-84.582 Z-9.360 I-1.057 J1.148 F2640.000
G2 X-125.623 Y-46.807 Z-9.360 I104.009 J84.582 F2640.000
G2 X-124.453 Y-44.716 Z-9.360 I1.457 J0.557 F2640.000
G1 X-108.808 Y-41.794 Z-9.360 F2640.000
G2 X-111.207 Y34.901 Z-9.360 I108.749 J41.787 F2640.000
G1 X-125.612 Y43.024 Z-9.360 F2640.000
G2 X-126.311 Y44.918 Z-9.360 I0.766 J1.359 F2640.000
G2 X-104.009 Y84.582 Z-9.360 I126.311 J-44.918 F2640.000
G2 X-101.734 Y84.756 Z-9.360 I1.219 J-0.974 F2640.000
G1 X-90.051 Y74.002 Z-9.360 F2640.000
G2 X-24.482 Y113.955 Z-9.360 I90.014 J-73.945 F2640.000
G1 X-26.547 Y129.920 Z-9.360 F2640.000
G2 X-25.281 Y131.655 Z-9.360 I1.547 J0.200 F2640.000
G2 X25.281 Y131.655 Z-9.360 I25.281 J-131.655 F2640.000
G2 X26.547 Y129.920 Z-9.360 I-0.281 J-1.534 F2640.000
G1 X24.482 Y113.956 Z-9.360 F2640.000
G2 X90.051 Y74.002 Z-9.360 I-24.446 J-113.898 F2640.000
G1 X101.734 Y84.756 Z-9.360 F2640.000
G2 X103.452 Y85.021 Z-9.360 I1.057 J-1.148 F2640.000
G1 X103.452 Y85.021 Z-12.480 F2400.000
G2 X104.009 Y84.582 Z-12.480 I-0.661 J-1.413 F2640.000
G2 X126.311 Y44.918 Z-12.480 I-104.009 J-84.582 F2640.000
G2 X125.612 Y43.024 Z-12.480 I-1.465 J-0.535 F2640.000
G1 X111.207 Y34.901 Z-12.480 F2640.000
G2 X108.807 Y-41.794 Z-12.480 I-111.148 J-34.907 F2640.000
G1 X124.453 Y-44.716 Z-12.480 F2640.000
G2 X125.623 Y-46.807 Z-12.480 I-0.286 J-1.533 F2640.000
G2 X104.009 Y-84.582 Z-12.480 I-125.623 J46.807 F2640.000
G2 X101.734 Y-84.756 Z-12.480 I-1.219 J0.974 F2640.000
G1 X90.051 Y-74.002 Z-12.480 F2640.000
G2 X24.482 Y-113.955 Z-12.480 I-90.014 J73.945 F2640.000
G1 X26.547 Y-129.920 Z-12.480 F2640.000
G2 X25.281 Y-131.655 Z-12.480 I-1.547 J-0.200 F2640.000
G2 X4.639 Y-133.980 Z-12.480 I-25.281 J131.655 F2640.000
G2 X-25.281 Y-131.655 Z-12.480 I-4.639 J133.980 F2640.000
G2 X-26.547 Y-129.920 Z-12.480 I0.281 J1.534 F2640.000
G1 X-24.482 Y-113.956 Z-12.480 F2640.000
G2 X-90.051 Y-74.002 Z-12.480 I24.446 J113.898 F2640.000
G1 X-101.734 Y-84.756 Z-12.480 F2640.000
G2 X-104.009 Y-84.582 Z-12.480 I-1.057 J1.148 F2640.000
G2 X-125.623 Y-46.807 Z-12.480 I104.009 J84.582 F2640.000
G2 X-124.453 Y-44.716 Z-12.480 I1.457 J0.557 F2640.000
G1 X-108.808 Y-41.794 Z-12.480 F2640.000
G2 X-111.207 Y34.901 Z-12.480 I108.749 J41.787 F2640.000
G1 X-125.612 Y43.024 Z-12.480 F2640.000
G2 X-126.311 Y44.918 Z-12.480 I0.766 J1.359 F2640.000
G2 X-104.009 Y84.582 Z-12.480 I126.311 J-44.918 F2640.000
G2 X-101.734 Y84.756 Z-12.480 I1.219 J-0.974 F2640.000
G1 X-90.051 Y74.002 Z-12.480 F2640.000
G2 X-24.482 Y113.955 Z-12.480 I90.014 J-73.945 F2640.000
G1 X-26.547 Y129.920 Z-12.480 F2640.000
G2 X-25.281 Y131.655 Z-12.480 I1.547 J0.200 F2640.000
G2 X25.281 Y131.655 Z-12.480 I25.281 J-131.655 F2640.000
G2 X26.547 Y129.920 Z-12.480 I-0.281 J-1.534 F2640.000
G1 X24.482 Y113.956 Z-12.480 F2640.000
G2 X90.051 Y74.002 Z-12.480 I-24.446 J-113.898 F2640.000
G1 X101.734 Y84.756 Z-12.480 F2640.000
G2 X103.452 Y85.021 Z-12.480 I1.057 J-1.148 F2640.000
G1 X103.452 Y85.021 Z-15.600 F2400.000
G2 X104.009 Y84.582 Z-15.600 I-0.661 J-1.413 F2640.000
G2 X126.311 Y44.918 Z-15.600 I-104.009 J-84.582 F2640.000
G2 X125.612 Y43.024 Z-15.600 I-1.465 J-0.535 F2640.000
G1 X111.207 Y34.901 Z-15.600 F2640.000
G2 X108.807 Y-41.794 Z-15.600 I-111.148 J-34.907 F2640.000
G1 X124.453 Y-44.716 Z-15.600 F2640.000
G2 X125.623 Y-46.807 Z-15.600 I-0.286 J-1.533 F2640.000
G2 X104.009 Y-84.582 Z-15.600 I-125.623 J46.807 F2640.000
G2 X101.734 Y-84.756 Z-15.600 I-1.219 J0.974 F2640.000
G1 X90.051 Y-74.002 Z-15.600 F2640.000
G2 X24.482 Y-113.955 Z-15.600 I-90.014 J73.945 F2640.000
G1 X26.547 Y-129.920 Z-15.600 F2640.000
G2 X25.281 Y-131.655 Z-15.600 I-1.547 J-0.200 F2640.000
G2 X4.639 Y-133.980 Z-15.600 I-25.281 J131.655 F2640.000
G2 X-25.281 Y-131.655 Z-15.600 I-4.639 J133.980 F2640.000
G2 X-26.547 Y-129.920 Z-15.600 I0.281 J1.534 F2640.000
G1 X-24.482 Y-113.956 Z-15.600 F2640.000
G2 X-90.051 Y-74.002 Z-15.600 I24.446 J113.898 F2640.000
G1 X-101.734 Y-84.756 Z-15.600 F2640.000
G2 X-104.009 Y-84.582 Z-15.600 I-1.057 J1.148 F2640.000
G2 X-125.623 Y-46.807 Z-15.600 I104.009 J84.582 F2640.000
G2 X-124.453 Y-44.716 Z-15.600 I1.457 J0.557 F2640.000
G1 X-108.808 Y-41.794 Z-15.600 F2640.000
G2 X-111.207 Y34.901 Z-15.600 I108.749 J41.787 F2640.000
G1 X-125.612 Y43.024 Z-15.600 F2640.000
G2 X-126.311 Y44.918 Z-15.600 I0.766 J1.359 F2640.000
G2 X-104.009 Y84.582 Z-15.600 I126.311 J-44.918 F2640.000
G2 X-101.734 Y84.756 Z-15.600 I1.219 J-0.974 F2640.000
G1 X-90.051 Y74.002 Z-15.600 F2640.000
G2 X-24.482 Y113.955 Z-15.600 I90.014 J-73.945 F2640.000
G1 X-26.547 Y129.920 Z-15.600 F2640.000
G2 X-25.281 Y131.655 Z-15.600 I1.547 J0.200 F2640.000
G2 X25.281 Y131.655 Z-15.600 I25.281 J-131.655 F2640.000
G2 X26.547 Y129.920 Z-15.600 I-0.281 J-1.534 F2640.000
G1 X24.482 Y113.956 Z-15.600 F2640.000
G2 X90.051 Y74.002 Z-15.600 I-24.446 J-113.898 F2640.000
G1 X101.734 Y84.756 Z-15.600 F2640.000
G2 X103.452 Y85.021 Z-15.600 I1.057 J-1.148 F2640.000
G1 X103.452 Y85.021 Z-18.300 F2400.000
G2 X104.009 Y84.582 Z-18.300 I-0.661 J-1.413 F2640.000
G2 X126.311 Y44.918 Z-18.300 I-104.009 J-84.582 F2640.000
G2 X125.612 Y43.024 Z-18.300 I-1.465 J-0.535 F2640.000
G1 X111.207 Y34.901 Z-18.300 F2640.000
G2 X108.807 Y-41.794 Z-18.300 I-111.148 J-34.907 F2640.000
G1 X124.453 Y-44.716 Z-18.300 F2640.000
G2 X125.623 Y-46.807 Z-18.300 I-0.286 J-1.533 F2640.000
G2 X104.009 Y-84.582 Z-18.300 I-125.623 J46.807 F2640.000
G2 X101.734 Y-84.756 Z-18.300 I-1.219 J0.974 F2640.000
G1 X90.051 Y-74.002 Z-18.300 F2640.000
G2 X24.482 Y-113.955 Z-18.300 I-90.014 J73.945 F2640.000
G1 X26.547 Y-129.920 Z-18.300 F2640.000
G2 X25.281 Y-131.655 Z-18.300 I-1.547 J-0.200 F2640.000
G2 X4.639 Y-133.980 Z-18.300 I-25.281 J131.655 F2640.000
G2 X-25.281 Y-131.655 Z-18.300 I-4.639 J133.980 F2640.000
G2 X-26.547 Y-129.920 Z-18.300 I0.281 J1.534 F2640.000
G1 X-24.482 Y-113.956 Z-18.300 F2640.000
G2 X-90.051 Y-74.002 Z-18.300 I24.446 J113.898 F2640.000
G1 X-101.734 Y-84.756 Z-18.300 F2640.000
G2 X-104.009 Y-84.582 Z-18.300 I-1.057 J1.148 F2640.000
G2 X-125.623 Y-46.807 Z-18.300 I104.009 J84.582 F2640.000
G2 X-124.453 Y-44.716 Z-18.300 I1.457 J0.557 F2640.000
G1 X-108.808 Y-41.794 Z-18.300 F2640.000
G2 X-111.207 Y34.901 Z-18.300 I108.749 J41.787 F2640.000
G1 X-125.612 Y43.024 Z-18.300 F2640.000
G2 X-126.311 Y44.918 Z-18.300 I0.766 J1.359 F2640.000
G2 X-104.009 Y84.582 Z-18.300 I126.311 J-44.918 F2640.000
G2 X-101.734 Y84.756 Z-18.300 I1.219 J-0.974 F2640.000
G1 X-90.051 Y74.002 Z-18.300 F2640.000
G2 X-24.482 Y113.955 Z-18.300 I90.014 J-73.945 F2640.000
G1 X-26.547 Y129.920 Z-18.300 F2640.000
G2 X-25.281 Y131.655 Z-18.300 I1.547 J0.200 F2640.000
G2 X25.281 Y131.655 Z-18.300 I25.281 J-131.655 F2640.000
G2 X26.547 Y129.920 Z-18.300 I-0.281 J-1.534 F2640.000
G1 X24.482 Y113.956 Z-18.300 F2640.000
G2 X90.051 Y74.002 Z-18.300 I-24.446 J-113.898 F2640.000
G1 X101.734 Y84.756 Z-18.300 F2640.000
G2 X103.452 Y85.021 Z-18.300 I1.057 J-1.148 F2640.000
G0 Z5.000
(finish operation: Contour)
(begin postamble)
M05
G17 G54 G90 G80 G40
M2
