(Exported by FreeCAD)
(Post Processor: linuxcnc_post)
(Output Time:2019-06-28 13:11:01.838470)
(begin preamble)
G17 G54 G40 G49 G80 G90
G21
(begin operation: T1: 1/8 2 Flute )
(machine: not set, mm/min)
(T1: 1/8 2 Flute )
M6 T1
M3 S6000
(finish operation: T1: 1/8 2 Flute )
(begin operation: Pocket_Shape)
(machine: not set, mm/min)
(Pocket_Shape)
G0 Z5.000
G0 X3.490 Y130.993
G0 Z3.000
G1 X3.490 Y130.993 Z-3.120 F2520.000
G2 X4.934 Y127.380 Z-3.120 I-3.491 J-3.491 F2520.000
G1 X1.817 Y127.500 Z-3.120 F2520.000
G1 X4.934 Y127.380 Z-3.120 F2520.000
G1 X4.924 Y127.122 Z-3.120 F2520.000
G2 X-0.378 Y122.576 Z-3.120 I-4.924 J0.378 F2520.000
G2 X-4.924 Y127.878 Z-3.120 I0.378 J4.924 F2520.000
G2 X3.490 Y130.993 Z-3.120 I4.923 J-0.376 F2520.000
G0 X3.490 Y130.993 Z5.000
G0 X1.284 Y128.785 Z5.000
G0 X1.284 Y128.785 Z-0.120
G1 X1.284 Y128.785 Z-3.120 F2520.000
G2 X1.817 Y127.500 Z-3.120 I-1.284 J-1.285 F2520.000
G2 X-0.000 Y125.683 Z-3.120 I-1.817 J-0.000 F2520.000
G2 X-1.817 Y127.500 Z-3.120 I0.000 J1.817 F2520.000
G2 X1.284 Y128.785 Z-3.120 I1.817 J0.000 F2520.000
G1 X1.284 Y128.785 Z-6.240 F2520.000
G2 X1.817 Y127.500 Z-6.240 I-1.284 J-1.285 F2520.000
G2 X-0.000 Y125.683 Z-6.240 I-1.817 J-0.000 F2520.000
G2 X-1.817 Y127.500 Z-6.240 I0.000 J1.817 F2520.000
G2 X1.284 Y128.785 Z-6.240 I1.817 J0.000 F2520.000
G0 X1.284 Y128.785 Z5.000
G0 X1.817 Y127.500 Z5.000
G0 X1.817 Y127.500 Z-3.240
G1 X1.817 Y127.500 Z-6.240 F2520.000
G1 X4.934 Y127.380 Z-6.240 F2520.000
G1 X4.924 Y127.122 Z-6.240 F2520.000
G2 X-0.378 Y122.576 Z-6.240 I-4.924 J0.378 F2520.000
G2 X-4.924 Y127.878 Z-6.240 I0.378 J4.924 F2520.000
G2 X4.934 Y127.380 Z-6.240 I4.923 J-0.376 F2520.000
G1 X1.817 Y127.500 Z-6.240 F2520.000
G1 X1.817 Y127.500 Z-9.360 F2520.000
G2 X-0.000 Y125.683 Z-9.360 I-1.817 J-0.000 F2520.000
G2 X-1.817 Y127.500 Z-9.360 I0.000 J1.817 F2520.000
G2 X-0.000 Y129.317 Z-9.360 I1.817 J0.000 F2520.000
G2 X1.817 Y127.500 Z-9.360 I-0.000 J-1.817 F2520.000
G1 X1.817 Y127.500 Z-9.360 F2520.000
G1 X4.934 Y127.380 Z-9.360 F2520.000
G1 X4.924 Y127.122 Z-9.360 F2520.000
G2 X-0.378 Y122.576 Z-9.360 I-4.924 J0.378 F2520.000
G2 X-4.924 Y127.878 Z-9.360 I0.378 J4.924 F2520.000
G2 X4.934 Y127.380 Z-9.360 I4.923 J-0.376 F2520.000
G1 X1.817 Y127.500 Z-9.360 F2520.000
G1 X1.817 Y127.500 Z-12.000 F2520.000
G1 X4.934 Y127.380 Z-12.000 F2520.000
G1 X4.924 Y127.122 Z-12.000 F2520.000
G2 X-0.378 Y122.576 Z-12.000 I-4.924 J0.378 F2520.000
G2 X-4.924 Y127.878 Z-12.000 I0.378 J4.924 F2520.000
G2 X4.934 Y127.380 Z-12.000 I4.923 J-0.376 F2520.000
G1 X1.817 Y127.500 Z-12.000 F2520.000
G1 X1.817 Y127.500 Z-12.000 F2520.000
G2 X-0.000 Y125.683 Z-12.000 I-1.817 J-0.000 F2520.000
G2 X-1.817 Y127.500 Z-12.000 I0.000 J1.817 F2520.000
G2 X-0.000 Y129.317 Z-12.000 I1.817 J0.000 F2520.000
G2 X1.817 Y127.500 Z-12.000 I-0.000 J-1.817 F2520.000
G0 Z5.000
(finish operation: Pocket_Shape)
(begin operation: Pocket_Shape001)
(machine: not set, mm/min)
(Pocket_Shape001)
G0 Z5.000
G0 X113.911 Y67.243
G0 Z3.000
G1 X113.911 Y67.243 Z-3.120 F2520.000
G3 X110.607 Y68.685 Z-3.120 I-3.491 J-3.491 F2520.000
G3 X105.483 Y63.939 Z-3.120 I-0.189 J-4.935 F2520.000
G3 X110.229 Y58.815 Z-3.120 I4.935 J-0.189 F2520.000
G1 X110.349 Y58.815 Z-3.120 F2520.000
G1 X110.349 Y61.935 Z-3.120 F2520.000
G1 X110.349 Y58.815 Z-3.120 F2520.000
G3 X113.911 Y67.243 Z-3.120 I0.071 J4.937 F2520.000
G0 X113.911 Y67.243 Z5.000
G0 X111.703 Y65.035 Z5.000
G0 X111.703 Y65.035 Z-0.120
G1 X111.703 Y65.035 Z-3.120 F2520.000
G2 X110.349 Y61.935 Z-3.120 I-1.285 J-1.285 F2520.000
G2 X110.488 Y65.565 Z-3.120 I0.070 J1.815 F2520.000
G2 X110.349 Y61.935 Z-3.120 I-0.070 J-1.815 F2520.000
G2 X110.488 Y65.565 Z-3.120 I0.070 J1.815 F2520.000
G2 X111.703 Y65.035 Z-3.120 I-0.070 J-1.815 F2520.000
G1 X111.703 Y65.035 Z-6.240 F2520.000
G2 X110.349 Y61.935 Z-6.240 I-1.285 J-1.285 F2520.000
G2 X110.488 Y65.565 Z-6.240 I0.070 J1.815 F2520.000
G2 X110.349 Y61.935 Z-6.240 I-0.070 J-1.815 F2520.000
G2 X110.488 Y65.565 Z-6.240 I0.070 J1.815 F2520.000
G2 X111.703 Y65.035 Z-6.240 I-0.070 J-1.815 F2520.000
G0 X111.703 Y65.035 Z5.000
G0 X113.911 Y67.243 Z5.000
G0 X113.911 Y67.243 Z-3.240
G1 X113.911 Y67.243 Z-6.240 F2520.000
G3 X110.607 Y68.685 Z-6.240 I-3.491 J-3.491 F2520.000
G3 X105.483 Y63.939 Z-6.240 I-0.189 J-4.935 F2520.000
G3 X110.229 Y58.815 Z-6.240 I4.935 J-0.189 F2520.000
G1 X110.349 Y58.815 Z-6.240 F2520.000
G1 X110.349 Y61.935 Z-6.240 F2520.000
G1 X110.349 Y58.815 Z-6.240 F2520.000
G3 X113.911 Y67.243 Z-6.240 I0.071 J4.937 F2520.000
G1 X113.911 Y67.243 Z-9.360 F2520.000
G3 X110.607 Y68.685 Z-9.360 I-3.491 J-3.491 F2520.000
G3 X105.483 Y63.939 Z-9.360 I-0.189 J-4.935 F2520.000
G3 X110.229 Y58.815 Z-9.360 I4.935 J-0.189 F2520.000
G1 X110.349 Y58.815 Z-9.360 F2520.000
G1 X110.349 Y61.935 Z-9.360 F2520.000
G1 X110.349 Y58.815 Z-9.360 F2520.000
G3 X113.911 Y67.243 Z-9.360 I0.071 J4.937 F2520.000
G0 X113.911 Y67.243 Z5.000
G0 X111.703 Y65.035 Z5.000
G0 X111.703 Y65.035 Z-6.360
G1 X111.703 Y65.035 Z-9.360 F2520.000
G2 X110.349 Y61.935 Z-9.360 I-1.284 J-1.285 F2520.000
G2 X110.488 Y65.565 Z-9.360 I0.070 J1.815 F2520.000
G2 X110.349 Y61.935 Z-9.360 I-0.070 J-1.815 F2520.000
G2 X110.488 Y65.565 Z-9.360 I0.070 J1.815 F2520.000
G2 X111.703 Y65.035 Z-9.360 I-0.070 J-1.815 F2520.000
G1 X111.703 Y65.035 Z-12.000 F2520.000
G2 X110.349 Y61.935 Z-12.000 I-1.284 J-1.285 F2520.000
G2 X110.488 Y65.565 Z-12.000 I0.070 J1.815 F2520.000
G2 X110.349 Y61.935 Z-12.000 I-0.070 J-1.815 F2520.000
G2 X110.488 Y65.565 Z-12.000 I0.070 J1.815 F2520.000
G2 X111.703 Y65.035 Z-12.000 I-0.070 J-1.815 F2520.000
G0 X111.703 Y65.035 Z5.000
G0 X113.911 Y67.243 Z5.000
G0 X113.911 Y67.243 Z-9.000
G1 X113.911 Y67.243 Z-12.000 F2520.000
G3 X110.607 Y68.685 Z-12.000 I-3.491 J-3.491 F2520.000
G3 X105.483 Y63.939 Z-12.000 I-0.189 J-4.935 F2520.000
G3 X110.229 Y58.815 Z-12.000 I4.935 J-0.189 F2520.000
G1 X110.349 Y58.815 Z-12.000 F2520.000
G1 X110.349 Y61.935 Z-12.000 F2520.000
G1 X110.349 Y58.815 Z-12.000 F2520.000
G3 X113.911 Y67.243 Z-12.000 I0.071 J4.937 F2520.000
G0 Z5.000
(finish operation: Pocket_Shape001)
(begin operation: Pocket_Shape002)
(machine: not set, mm/min)
(Pocket_Shape002)
G0 Z5.000
G0 X113.911 Y-60.257
G0 Z3.000
G1 X113.911 Y-60.257 Z-3.120 F2520.000
G3 X110.607 Y-58.815 Z-3.120 I-3.491 J-3.491 F2520.000
G3 X105.483 Y-63.561 Z-3.120 I-0.189 J-4.935 F2520.000
G3 X110.229 Y-68.685 Z-3.120 I4.935 J-0.189 F2520.000
G1 X110.349 Y-68.685 Z-3.120 F2520.000
G1 X110.349 Y-65.565 Z-3.120 F2520.000
G1 X110.349 Y-68.685 Z-3.120 F2520.000
G3 X113.911 Y-60.257 Z-3.120 I0.071 J4.937 F2520.000
G0 X113.911 Y-60.257 Z5.000
G0 X111.703 Y-62.465 Z5.000
G0 X111.703 Y-62.465 Z-0.120
G1 X111.703 Y-62.465 Z-3.120 F2520.000
G2 X110.349 Y-65.565 Z-3.120 I-1.285 J-1.285 F2520.000
G2 X110.488 Y-61.935 Z-3.120 I0.070 J1.815 F2520.000
G2 X110.349 Y-65.565 Z-3.120 I-0.070 J-1.815 F2520.000
G2 X110.488 Y-61.935 Z-3.120 I0.070 J1.815 F2520.000
G2 X111.703 Y-62.465 Z-3.120 I-0.070 J-1.815 F2520.000
G1 X111.703 Y-62.465 Z-6.240 F2520.000
G2 X110.349 Y-65.565 Z-6.240 I-1.285 J-1.285 F2520.000
G2 X110.488 Y-61.935 Z-6.240 I0.070 J1.815 F2520.000
G2 X110.349 Y-65.565 Z-6.240 I-0.070 J-1.815 F2520.000
G2 X110.488 Y-61.935 Z-6.240 I0.070 J1.815 F2520.000
G2 X111.703 Y-62.465 Z-6.240 I-0.070 J-1.815 F2520.000
G0 X111.703 Y-62.465 Z5.000
G0 X113.911 Y-60.257 Z5.000
G0 X113.911 Y-60.257 Z-3.240
G1 X113.911 Y-60.257 Z-6.240 F2520.000
G3 X110.607 Y-58.815 Z-6.240 I-3.491 J-3.491 F2520.000
G3 X105.483 Y-63.561 Z-6.240 I-0.189 J-4.935 F2520.000
G3 X110.229 Y-68.685 Z-6.240 I4.935 J-0.189 F2520.000
G1 X110.349 Y-68.685 Z-6.240 F2520.000
G1 X110.349 Y-65.565 Z-6.240 F2520.000
G1 X110.349 Y-68.685 Z-6.240 F2520.000
G3 X113.911 Y-60.257 Z-6.240 I0.071 J4.937 F2520.000
G1 X113.911 Y-60.257 Z-9.360 F2520.000
G3 X110.607 Y-58.815 Z-9.360 I-3.491 J-3.491 F2520.000
G3 X105.483 Y-63.561 Z-9.360 I-0.189 J-4.935 F2520.000
G3 X110.229 Y-68.685 Z-9.360 I4.935 J-0.189 F2520.000
G1 X110.349 Y-68.685 Z-9.360 F2520.000
G1 X110.349 Y-65.565 Z-9.360 F2520.000
G1 X110.349 Y-68.685 Z-9.360 F2520.000
G3 X113.911 Y-60.257 Z-9.360 I0.071 J4.937 F2520.000
G0 X113.911 Y-60.257 Z5.000
G0 X111.703 Y-62.465 Z5.000
G0 X111.703 Y-62.465 Z-6.360
G1 X111.703 Y-62.465 Z-9.360 F2520.000
G2 X110.349 Y-65.565 Z-9.360 I-1.284 J-1.285 F2520.000
G2 X110.488 Y-61.935 Z-9.360 I0.070 J1.815 F2520.000
G2 X110.349 Y-65.565 Z-9.360 I-0.070 J-1.815 F2520.000
G2 X110.488 Y-61.935 Z-9.360 I0.070 J1.815 F2520.000
G2 X111.703 Y-62.465 Z-9.360 I-0.070 J-1.815 F2520.000
G1 X111.703 Y-62.465 Z-12.000 F2520.000
G2 X110.349 Y-65.565 Z-12.000 I-1.284 J-1.285 F2520.000
G2 X110.488 Y-61.935 Z-12.000 I0.070 J1.815 F2520.000
G2 X110.349 Y-65.565 Z-12.000 I-0.070 J-1.815 F2520.000
G2 X110.488 Y-61.935 Z-12.000 I0.070 J1.815 F2520.000
G2 X111.703 Y-62.465 Z-12.000 I-0.070 J-1.815 F2520.000
G0 X111.703 Y-62.465 Z5.000
G0 X113.911 Y-60.257 Z5.000
G0 X113.911 Y-60.257 Z-9.000
G1 X113.911 Y-60.257 Z-12.000 F2520.000
G3 X110.607 Y-58.815 Z-12.000 I-3.491 J-3.491 F2520.000
G3 X105.483 Y-63.561 Z-12.000 I-0.189 J-4.935 F2520.000
G3 X110.229 Y-68.685 Z-12.000 I4.935 J-0.189 F2520.000
G1 X110.349 Y-68.685 Z-12.000 F2520.000
G1 X110.349 Y-65.565 Z-12.000 F2520.000
G1 X110.349 Y-68.685 Z-12.000 F2520.000
G3 X113.911 Y-60.257 Z-12.000 I0.071 J4.937 F2520.000
G0 Z5.000
(finish operation: Pocket_Shape002)
(begin operation: Pocket_Shape003)
(machine: not set, mm/min)
(Pocket_Shape003)
G0 Z5.000
G0 X3.490 Y-124.007
G0 Z3.000
G1 X3.490 Y-124.007 Z-3.120 F2520.000
G2 X4.934 Y-127.620 Z-3.120 I-3.491 J-3.491 F2520.000
G1 X1.817 Y-127.500 Z-3.120 F2520.000
G1 X4.934 Y-127.620 Z-3.120 F2520.000
G1 X4.924 Y-127.878 Z-3.120 F2520.000
G2 X-0.378 Y-132.424 Z-3.120 I-4.924 J0.378 F2520.000
G2 X-4.924 Y-127.122 Z-3.120 I0.378 J4.924 F2520.000
G2 X3.490 Y-124.007 Z-3.120 I4.923 J-0.376 F2520.000
G0 X3.490 Y-124.007 Z5.000
G0 X1.284 Y-126.215 Z5.000
G0 X1.284 Y-126.215 Z-0.120
G1 X1.284 Y-126.215 Z-3.120 F2520.000
G2 X1.817 Y-127.500 Z-3.120 I-1.284 J-1.285 F2520.000
G2 X-0.000 Y-129.317 Z-3.120 I-1.817 J-0.000 F2520.000
G2 X-1.817 Y-127.500 Z-3.120 I0.000 J1.817 F2520.000
G2 X1.284 Y-126.215 Z-3.120 I1.817 J0.000 F2520.000
G1 X1.284 Y-126.215 Z-6.240 F2520.000
G2 X1.817 Y-127.500 Z-6.240 I-1.284 J-1.285 F2520.000
G2 X-0.000 Y-129.317 Z-6.240 I-1.817 J-0.000 F2520.000
G2 X-1.817 Y-127.500 Z-6.240 I0.000 J1.817 F2520.000
G2 X1.284 Y-126.215 Z-6.240 I1.817 J0.000 F2520.000
G0 X1.284 Y-126.215 Z5.000
G0 X1.817 Y-127.500 Z5.000
G0 X1.817 Y-127.500 Z-3.240
G1 X1.817 Y-127.500 Z-6.240 F2520.000
G1 X4.934 Y-127.620 Z-6.240 F2520.000
G1 X4.924 Y-127.878 Z-6.240 F2520.000
G2 X-0.378 Y-132.424 Z-6.240 I-4.924 J0.378 F2520.000
G2 X-4.924 Y-127.122 Z-6.240 I0.378 J4.924 F2520.000
G2 X4.934 Y-127.620 Z-6.240 I4.923 J-0.376 F2520.000
G1 X1.817 Y-127.500 Z-6.240 F2520.000
G1 X1.817 Y-127.500 Z-9.360 F2520.000
G1 X4.934 Y-127.620 Z-9.360 F2520.000
G1 X4.924 Y-127.878 Z-9.360 F2520.000
G2 X-0.378 Y-132.424 Z-9.360 I-4.924 J0.378 F2520.000
G2 X-4.924 Y-127.122 Z-9.360 I0.378 J4.924 F2520.000
G2 X4.934 Y-127.620 Z-9.360 I4.923 J-0.376 F2520.000
G1 X1.817 Y-127.500 Z-9.360 F2520.000
G1 X1.817 Y-127.500 Z-9.360 F2520.000
G2 X-0.000 Y-129.317 Z-9.360 I-1.817 J-0.000 F2520.000
G2 X-1.817 Y-127.500 Z-9.360 I0.000 J1.817 F2520.000
G2 X-0.000 Y-125.683 Z-9.360 I1.817 J0.000 F2520.000
G2 X1.817 Y-127.500 Z-9.360 I-0.000 J-1.817 F2520.000
G1 X1.817 Y-127.500 Z-12.000 F2520.000
G1 X4.934 Y-127.620 Z-12.000 F2520.000
G1 X4.924 Y-127.878 Z-12.000 F2520.000
G2 X-0.378 Y-132.424 Z-12.000 I-4.924 J0.378 F2520.000
G2 X-4.924 Y-127.122 Z-12.000 I0.378 J4.924 F2520.000
G2 X4.934 Y-127.620 Z-12.000 I4.923 J-0.376 F2520.000
G1 X1.817 Y-127.500 Z-12.000 F2520.000
G1 X1.817 Y-127.500 Z-12.000 F2520.000
G2 X-0.000 Y-129.317 Z-12.000 I-1.817 J-0.000 F2520.000
G2 X-1.817 Y-127.500 Z-12.000 I0.000 J1.817 F2520.000
G2 X-0.000 Y-125.683 Z-12.000 I1.817 J0.000 F2520.000
G2 X1.817 Y-127.500 Z-12.000 I-0.000 J-1.817 F2520.000
G0 Z5.000
(finish operation: Pocket_Shape003)
(begin operation: Pocket_Shape004)
(machine: not set, mm/min)
(Pocket_Shape004)
G0 Z5.000
G0 X-106.925 Y-60.257
G0 Z3.000
G1 X-106.925 Y-60.257 Z-3.120 F2520.000
G3 X-110.229 Y-58.815 Z-3.120 I-3.491 J-3.491 F2520.000
G3 X-115.353 Y-63.561 Z-3.120 I-0.189 J-4.935 F2520.000
G3 X-110.607 Y-68.685 Z-3.120 I4.935 J-0.189 F2520.000
G1 X-110.488 Y-68.685 Z-3.120 F2520.000
G1 X-110.488 Y-65.565 Z-3.120 F2520.000
G1 X-110.488 Y-68.685 Z-3.120 F2520.000
G3 X-106.925 Y-60.257 Z-3.120 I0.071 J4.937 F2520.000
G0 X-106.925 Y-60.257 Z5.000
G0 X-109.134 Y-62.465 Z5.000
G0 X-109.134 Y-62.465 Z-0.120
G1 X-109.134 Y-62.465 Z-3.120 F2520.000
G2 X-110.488 Y-65.565 Z-3.120 I-1.285 J-1.285 F2520.000
G2 X-110.349 Y-61.935 Z-3.120 I0.070 J1.815 F2520.000
G2 X-110.488 Y-65.565 Z-3.120 I-0.070 J-1.815 F2520.000
G2 X-110.349 Y-61.935 Z-3.120 I0.070 J1.815 F2520.000
G2 X-109.134 Y-62.465 Z-3.120 I-0.070 J-1.815 F2520.000
G1 X-109.134 Y-62.465 Z-6.240 F2520.000
G2 X-110.488 Y-65.565 Z-6.240 I-1.285 J-1.285 F2520.000
G2 X-110.349 Y-61.935 Z-6.240 I0.070 J1.815 F2520.000
G2 X-110.488 Y-65.565 Z-6.240 I-0.070 J-1.815 F2520.000
G2 X-110.349 Y-61.935 Z-6.240 I0.070 J1.815 F2520.000
G2 X-109.134 Y-62.465 Z-6.240 I-0.070 J-1.815 F2520.000
G0 X-109.134 Y-62.465 Z5.000
G0 X-106.926 Y-60.257 Z5.000
G0 X-106.926 Y-60.257 Z-3.240
G1 X-106.926 Y-60.257 Z-6.240 F2520.000
G3 X-110.229 Y-58.815 Z-6.240 I-3.491 J-3.491 F2520.000
G3 X-115.353 Y-63.561 Z-6.240 I-0.189 J-4.935 F2520.000
G3 X-110.607 Y-68.685 Z-6.240 I4.935 J-0.189 F2520.000
G1 X-110.488 Y-68.685 Z-6.240 F2520.000
G1 X-110.488 Y-65.565 Z-6.240 F2520.000
G1 X-110.488 Y-68.685 Z-6.240 F2520.000
G3 X-106.926 Y-60.257 Z-6.240 I0.071 J4.937 F2520.000
G1 X-106.926 Y-60.257 Z-9.360 F2520.000
G3 X-110.229 Y-58.815 Z-9.360 I-3.491 J-3.491 F2520.000
G3 X-115.353 Y-63.561 Z-9.360 I-0.189 J-4.935 F2520.000
G3 X-110.607 Y-68.685 Z-9.360 I4.935 J-0.189 F2520.000
G1 X-110.488 Y-68.685 Z-9.360 F2520.000
G1 X-110.488 Y-65.565 Z-9.360 F2520.000
G1 X-110.488 Y-68.685 Z-9.360 F2520.000
G3 X-106.926 Y-60.257 Z-9.360 I0.071 J4.937 F2520.000
G0 X-106.926 Y-60.257 Z5.000
G0 X-109.134 Y-62.465 Z5.000
G0 X-109.134 Y-62.465 Z-6.360
G1 X-109.134 Y-62.465 Z-9.360 F2520.000
G2 X-110.488 Y-65.565 Z-9.360 I-1.284 J-1.285 F2520.000
G2 X-110.349 Y-61.935 Z-9.360 I0.070 J1.815 F2520.000
G2 X-110.488 Y-65.565 Z-9.360 I-0.070 J-1.815 F2520.000
G2 X-110.349 Y-61.935 Z-9.360 I0.070 J1.815 F2520.000
G2 X-109.134 Y-62.465 Z-9.360 I-0.070 J-1.815 F2520.000
G1 X-109.134 Y-62.465 Z-12.000 F2520.000
G2 X-110.488 Y-65.565 Z-12.000 I-1.284 J-1.285 F2520.000
G2 X-110.349 Y-61.935 Z-12.000 I0.070 J1.815 F2520.000
G2 X-110.488 Y-65.565 Z-12.000 I-0.070 J-1.815 F2520.000
G2 X-110.349 Y-61.935 Z-12.000 I0.070 J1.815 F2520.000
G2 X-109.134 Y-62.465 Z-12.000 I-0.070 J-1.815 F2520.000
G0 X-109.134 Y-62.465 Z5.000
G0 X-106.926 Y-60.257 Z5.000
G0 X-106.926 Y-60.257 Z-9.000
G1 X-106.926 Y-60.257 Z-12.000 F2520.000
G3 X-110.229 Y-58.815 Z-12.000 I-3.491 J-3.491 F2520.000
G3 X-115.353 Y-63.561 Z-12.000 I-0.189 J-4.935 F2520.000
G3 X-110.607 Y-68.685 Z-12.000 I4.935 J-0.189 F2520.000
G1 X-110.488 Y-68.685 Z-12.000 F2520.000
G1 X-110.488 Y-65.565 Z-12.000 F2520.000
G1 X-110.488 Y-68.685 Z-12.000 F2520.000
G3 X-106.926 Y-60.257 Z-12.000 I0.071 J4.937 F2520.000
G0 Z5.000
(finish operation: Pocket_Shape004)
(begin operation: Pocket_Shape005)
(machine: not set, mm/min)
(Pocket_Shape005)
G0 Z5.000
G0 X-106.925 Y67.243
G0 Z3.000
G1 X-106.925 Y67.243 Z-3.120 F2520.000
G3 X-110.229 Y68.685 Z-3.120 I-3.491 J-3.491 F2520.000
G3 X-115.353 Y63.939 Z-3.120 I-0.189 J-4.935 F2520.000
G3 X-110.607 Y58.815 Z-3.120 I4.935 J-0.189 F2520.000
G1 X-110.488 Y58.815 Z-3.120 F2520.000
G1 X-110.488 Y61.935 Z-3.120 F2520.000
G1 X-110.488 Y58.815 Z-3.120 F2520.000
G3 X-106.925 Y67.243 Z-3.120 I0.071 J4.937 F2520.000
G0 X-106.925 Y67.243 Z5.000
G0 X-109.134 Y65.035 Z5.000
G0 X-109.134 Y65.035 Z-0.120
G1 X-109.134 Y65.035 Z-3.120 F2520.000
G2 X-110.488 Y61.935 Z-3.120 I-1.285 J-1.285 F2520.000
G2 X-110.349 Y65.565 Z-3.120 I0.070 J1.815 F2520.000
G2 X-110.488 Y61.935 Z-3.120 I-0.070 J-1.815 F2520.000
G2 X-110.349 Y65.565 Z-3.120 I0.070 J1.815 F2520.000
G2 X-109.134 Y65.035 Z-3.120 I-0.070 J-1.815 F2520.000
G1 X-109.134 Y65.035 Z-6.240 F2520.000
G2 X-110.488 Y61.935 Z-6.240 I-1.285 J-1.285 F2520.000
G2 X-110.349 Y65.565 Z-6.240 I0.070 J1.815 F2520.000
G2 X-110.488 Y61.935 Z-6.240 I-0.070 J-1.815 F2520.000
G2 X-110.349 Y65.565 Z-6.240 I0.070 J1.815 F2520.000
G2 X-109.134 Y65.035 Z-6.240 I-0.070 J-1.815 F2520.000
G0 X-109.134 Y65.035 Z5.000
G0 X-106.926 Y67.243 Z5.000
G0 X-106.926 Y67.243 Z-3.240
G1 X-106.926 Y67.243 Z-6.240 F2520.000
G3 X-110.229 Y68.685 Z-6.240 I-3.491 J-3.491 F2520.000
G3 X-115.353 Y63.939 Z-6.240 I-0.189 J-4.935 F2520.000
G3 X-110.607 Y58.815 Z-6.240 I4.935 J-0.189 F2520.000
G1 X-110.488 Y58.815 Z-6.240 F2520.000
G1 X-110.488 Y61.935 Z-6.240 F2520.000
G1 X-110.488 Y58.815 Z-6.240 F2520.000
G3 X-106.926 Y67.243 Z-6.240 I0.071 J4.937 F2520.000
G1 X-106.926 Y67.243 Z-9.360 F2520.000
G3 X-110.229 Y68.685 Z-9.360 I-3.491 J-3.491 F2520.000
G3 X-115.353 Y63.939 Z-9.360 I-0.189 J-4.935 F2520.000
G3 X-110.607 Y58.815 Z-9.360 I4.935 J-0.189 F2520.000
G1 X-110.488 Y58.815 Z-9.360 F2520.000
G1 X-110.488 Y61.935 Z-9.360 F2520.000
G1 X-110.488 Y58.815 Z-9.360 F2520.000
G3 X-106.926 Y67.243 Z-9.360 I0.071 J4.937 F2520.000
G0 X-106.926 Y67.243 Z5.000
G0 X-109.134 Y65.035 Z5.000
G0 X-109.134 Y65.035 Z-6.360
G1 X-109.134 Y65.035 Z-9.360 F2520.000
G2 X-110.488 Y61.935 Z-9.360 I-1.284 J-1.285 F2520.000
G2 X-110.349 Y65.565 Z-9.360 I0.070 J1.815 F2520.000
G2 X-110.488 Y61.935 Z-9.360 I-0.070 J-1.815 F2520.000
G2 X-110.349 Y65.565 Z-9.360 I0.070 J1.815 F2520.000
G2 X-109.134 Y65.035 Z-9.360 I-0.070 J-1.815 F2520.000
G1 X-109.134 Y65.035 Z-12.000 F2520.000
G2 X-110.488 Y61.935 Z-12.000 I-1.284 J-1.285 F2520.000
G2 X-110.349 Y65.565 Z-12.000 I0.070 J1.815 F2520.000
G2 X-110.488 Y61.935 Z-12.000 I-0.070 J-1.815 F2520.000
G2 X-110.349 Y65.565 Z-12.000 I0.070 J1.815 F2520.000
G2 X-109.134 Y65.035 Z-12.000 I-0.070 J-1.815 F2520.000
G0 X-109.134 Y65.035 Z5.000
G0 X-106.926 Y67.243 Z5.000
G0 X-106.926 Y67.243 Z-9.000
G1 X-106.926 Y67.243 Z-12.000 F2520.000
G3 X-110.229 Y68.685 Z-12.000 I-3.491 J-3.491 F2520.000
G3 X-115.353 Y63.939 Z-12.000 I-0.189 J-4.935 F2520.000
G3 X-110.607 Y58.815 Z-12.000 I4.935 J-0.189 F2520.000
G1 X-110.488 Y58.815 Z-12.000 F2520.000
G1 X-110.488 Y61.935 Z-12.000 F2520.000
G1 X-110.488 Y58.815 Z-12.000 F2520.000
G3 X-106.926 Y67.243 Z-12.000 I0.071 J4.937 F2520.000
G0 Z5.000
(finish operation: Pocket_Shape005)
(begin operation: Profile_Faces)
(machine: not set, mm/min)
(Profile_Faces)
(Compensated Tool Path. Diameter: 3.12)
G0 Z5.000
G0 X-65.963 Y111.791
G0 Z3.000
G1 X-65.963 Y111.791 Z-3.120 F2520.000
G2 X-66.336 Y110.237 Z-3.120 I-0.662 J-0.662 F2520.000
G2 X-67.517 Y110.839 Z-3.120 I-0.290 J0.891 F2520.000
G2 X-66.915 Y112.019 Z-3.120 I0.891 J0.290 F2520.000
G2 X-65.963 Y111.791 Z-3.120 I0.290 J-0.891 F2520.000
G1 X-65.963 Y111.791 Z-6.240 F2520.000
G2 X-66.336 Y110.237 Z-6.240 I-0.662 J-0.662 F2520.000
G2 X-67.517 Y110.839 Z-6.240 I-0.290 J0.891 F2520.000
G2 X-66.915 Y112.019 Z-6.240 I0.891 J0.290 F2520.000
G2 X-65.963 Y111.791 Z-6.240 I0.290 J-0.891 F2520.000
G1 X-65.963 Y111.791 Z-9.360 F2520.000
G2 X-66.336 Y110.237 Z-9.360 I-0.662 J-0.662 F2520.000
G2 X-67.517 Y110.839 Z-9.360 I-0.290 J0.891 F2520.000
G2 X-66.915 Y112.019 Z-9.360 I0.891 J0.290 F2520.000
G2 X-65.963 Y111.791 Z-9.360 I0.290 J-0.891 F2520.000
G1 X-65.963 Y111.791 Z-12.000 F2520.000
G2 X-66.336 Y110.237 Z-12.000 I-0.662 J-0.662 F2520.000
G2 X-67.517 Y110.839 Z-12.000 I-0.290 J0.891 F2520.000
G2 X-66.915 Y112.019 Z-12.000 I0.891 J0.290 F2520.000
G2 X-65.963 Y111.791 Z-12.000 I0.290 J-0.891 F2520.000
G0 Z5.000
(finish operation: Profile_Faces)
(begin operation: Profile_Faces001)
(machine: not set, mm/min)
(Profile_Faces001)
(Compensated Tool Path. Diameter: 3.12)
G0 Z5.000
G0 X128.663 Y0.663
G0 Z3.000
G1 X128.663 Y0.663 Z-3.120 F2520.000
G2 X128.171 Y-0.921 Z-3.120 I-0.663 J-0.663 F2520.000
G2 X127.079 Y-0.171 Z-3.120 I-0.171 J0.921 F2520.000
G2 X127.829 Y0.921 Z-3.120 I0.921 J0.171 F2520.000
G2 X128.663 Y0.663 Z-3.120 I0.171 J-0.921 F2520.000
G1 X128.663 Y0.663 Z-6.240 F2520.000
G2 X128.171 Y-0.921 Z-6.240 I-0.663 J-0.663 F2520.000
G2 X127.079 Y-0.171 Z-6.240 I-0.171 J0.921 F2520.000
G2 X127.829 Y0.921 Z-6.240 I0.921 J0.171 F2520.000
G2 X128.663 Y0.663 Z-6.240 I0.171 J-0.921 F2520.000
G1 X128.663 Y0.663 Z-9.360 F2520.000
G2 X128.171 Y-0.921 Z-9.360 I-0.663 J-0.663 F2520.000
G2 X127.079 Y-0.171 Z-9.360 I-0.171 J0.921 F2520.000
G2 X127.829 Y0.921 Z-9.360 I0.921 J0.171 F2520.000
G2 X128.663 Y0.663 Z-9.360 I0.171 J-0.921 F2520.000
G1 X128.663 Y0.663 Z-12.000 F2520.000
G2 X128.171 Y-0.921 Z-12.000 I-0.663 J-0.663 F2520.000
G2 X127.079 Y-0.171 Z-12.000 I-0.171 J0.921 F2520.000
G2 X127.829 Y0.921 Z-12.000 I0.921 J0.171 F2520.000
G2 X128.663 Y0.663 Z-12.000 I0.171 J-0.921 F2520.000
G0 Z5.000
(finish operation: Profile_Faces001)
(begin operation: Profile_Faces002)
(machine: not set, mm/min)
(Profile_Faces002)
(Compensated Tool Path. Diameter: 3.12)
G0 Z5.000
G0 X-63.003 Y-109.019
G0 Z3.000
G1 X-63.003 Y-109.019 Z-3.120 F2520.000
G2 X-62.744 Y-109.511 Z-3.120 I-0.663 J-0.663 F2520.000
G2 X-63.495 Y-110.603 Z-3.120 I-0.921 J-0.171 F2520.000
G2 X-64.587 Y-109.853 Z-3.120 I-0.171 J0.921 F2520.000
G2 X-63.003 Y-109.019 Z-3.120 I0.921 J0.171 F2520.000
G1 X-63.003 Y-109.019 Z-6.240 F2520.000
G2 X-62.744 Y-109.511 Z-6.240 I-0.663 J-0.663 F2520.000
G2 X-63.495 Y-110.603 Z-6.240 I-0.921 J-0.171 F2520.000
G2 X-64.587 Y-109.853 Z-6.240 I-0.171 J0.921 F2520.000
G2 X-63.003 Y-109.019 Z-6.240 I0.921 J0.171 F2520.000
G1 X-63.003 Y-109.019 Z-9.360 F2520.000
G2 X-62.744 Y-109.511 Z-9.360 I-0.663 J-0.663 F2520.000
G2 X-63.495 Y-110.603 Z-9.360 I-0.921 J-0.171 F2520.000
G2 X-64.587 Y-109.853 Z-9.360 I-0.171 J0.921 F2520.000
G2 X-63.003 Y-109.019 Z-9.360 I0.921 J0.171 F2520.000
G1 X-63.003 Y-109.019 Z-12.000 F2520.000
G2 X-62.744 Y-109.511 Z-12.000 I-0.663 J-0.663 F2520.000
G2 X-63.495 Y-110.603 Z-12.000 I-0.921 J-0.171 F2520.000
G2 X-64.587 Y-109.853 Z-12.000 I-0.171 J0.921 F2520.000
G2 X-63.003 Y-109.019 Z-12.000 I0.921 J0.171 F2520.000
G0 Z5.000
(finish operation: Profile_Faces002)
(begin operation: Profile_Faces003)
(machine: not set, mm/min)
(Profile_Faces003)
(Compensated Tool Path. Diameter: 3.12)
G0 Z5.000
G0 X80.214 Y80.214
G0 Z3.000
G1 X80.214 Y80.214 Z-3.120 F2520.000
G2 X3.150 Y-113.396 Z-3.120 I-80.214 J-80.214 F2520.000
G2 X-3.150 Y113.396 Z-3.120 I-3.150 J113.396 F2520.000
G2 X80.214 Y80.214 Z-3.120 I3.150 J-113.396 F2520.000
G1 X80.214 Y80.214 Z-6.240 F2520.000
G2 X3.150 Y-113.396 Z-6.240 I-80.214 J-80.214 F2520.000
G2 X-3.150 Y113.396 Z-6.240 I-3.150 J113.396 F2520.000
G2 X80.214 Y80.214 Z-6.240 I3.150 J-113.396 F2520.000
G1 X80.214 Y80.214 Z-9.360 F2520.000
G2 X3.150 Y-113.396 Z-9.360 I-80.214 J-80.214 F2520.000
G2 X-3.150 Y113.396 Z-9.360 I-3.150 J113.396 F2520.000
G2 X80.214 Y80.214 Z-9.360 I3.150 J-113.396 F2520.000
G1 X80.214 Y80.214 Z-12.480 F2520.000
G2 X3.150 Y-113.396 Z-12.480 I-80.214 J-80.214 F2520.000
G2 X-3.150 Y113.396 Z-12.480 I-3.150 J113.396 F2520.000
G2 X80.214 Y80.214 Z-12.480 I3.150 J-113.396 F2520.000
G1 X80.214 Y80.214 Z-15.600 F2520.000
G2 X3.150 Y-113.396 Z-15.600 I-80.214 J-80.214 F2520.000
G2 X-3.150 Y113.396 Z-15.600 I-3.150 J113.396 F2520.000
G2 X80.214 Y80.214 Z-15.600 I3.150 J-113.396 F2520.000
G1 X80.214 Y80.214 Z-18.300 F2520.000
G2 X3.150 Y-113.396 Z-18.300 I-80.214 J-80.214 F2520.000
G2 X-3.150 Y113.396 Z-18.300 I-3.150 J113.396 F2520.000
G2 X80.214 Y80.214 Z-18.300 I3.150 J-113.396 F2520.000
G0 Z5.000
(finish operation: Profile_Faces003)
(begin operation: Contour)
(machine: not set, mm/min)
(Contour)
(Compensated Tool Path. Diameter: 3.12)
G0 Z5.000
G0 X100.098 Y100.098
G0 Z3.000
G1 X100.098 Y100.098 Z-3.120 F2520.000
G2 X4.794 Y-141.479 Z-3.120 I-100.098 J-100.098 F2520.000
G2 X-141.479 Y-4.794 Z-3.120 I-4.794 J141.479 F2520.000
G2 X-4.794 Y141.479 Z-3.120 I141.479 J4.794 F2520.000
G2 X100.098 Y100.098 Z-3.120 I4.794 J-141.479 F2520.000
G1 X100.098 Y100.098 Z-6.240 F2520.000
G2 X4.794 Y-141.479 Z-6.240 I-100.098 J-100.098 F2520.000
G2 X-141.479 Y-4.794 Z-6.240 I-4.794 J141.479 F2520.000
G2 X-4.794 Y141.479 Z-6.240 I141.479 J4.794 F2520.000
G2 X100.098 Y100.098 Z-6.240 I4.794 J-141.479 F2520.000
G1 X100.098 Y100.098 Z-9.360 F2520.000
G2 X4.794 Y-141.479 Z-9.360 I-100.098 J-100.098 F2520.000
G2 X-141.479 Y-4.794 Z-9.360 I-4.794 J141.479 F2520.000
G2 X-4.794 Y141.479 Z-9.360 I141.479 J4.794 F2520.000
G2 X100.098 Y100.098 Z-9.360 I4.794 J-141.479 F2520.000
G1 X100.098 Y100.098 Z-12.480 F2520.000
G2 X4.794 Y-141.479 Z-12.480 I-100.098 J-100.098 F2520.000
G2 X-141.479 Y-4.794 Z-12.480 I-4.794 J141.479 F2520.000
G2 X-4.794 Y141.479 Z-12.480 I141.479 J4.794 F2520.000
G2 X100.098 Y100.098 Z-12.480 I4.794 J-141.479 F2520.000
G1 X100.098 Y100.098 Z-15.600 F2520.000
G2 X4.794 Y-141.479 Z-15.600 I-100.098 J-100.098 F2520.000
G2 X-141.479 Y-4.794 Z-15.600 I-4.794 J141.479 F2520.000
G2 X-4.794 Y141.479 Z-15.600 I141.479 J4.794 F2520.000
G2 X100.098 Y100.098 Z-15.600 I4.794 J-141.479 F2520.000
G1 X100.098 Y100.098 Z-18.300 F2520.000
G2 X4.794 Y-141.479 Z-18.300 I-100.098 J-100.098 F2520.000
G2 X-141.479 Y-4.794 Z-18.300 I-4.794 J141.479 F2520.000
G2 X-4.794 Y141.479 Z-18.300 I141.479 J4.794 F2520.000
G2 X100.098 Y100.098 Z-18.300 I4.794 J-141.479 F2520.000
G0 Z5.000
(finish operation: Contour)
(begin postamble)
M05
G17 G54 G90 G80 G40
M2
