(Exported by FreeCAD)
(Post Processor: linuxcnc_post)
(Output Time:2019-06-28 10:18:36.975802)
(begin preamble)
G17 G54 G40 G49 G80 G90
G21
(begin operation: T1: 1/8 2 Flute )
(machine: not set, mm/min)
(T1: 1/8 2 Flute )
M6 T1
M3 S6000
(finish operation: T1: 1/8 2 Flute )
(begin operation: Profile_Faces)
(machine: not set, mm/min)
(Profile_Faces)
(Compensated Tool Path. Diameter: 3.12)
G0 Z5.000
G0 X43.798 Y43.798
G0 Z3.000
G1 X43.798 Y43.798 Z-3.120 F2520.000
G2 X61.863 Y3.087 Z-3.120 I-43.798 J-43.798 F2520.000
G2 X-61.863 Y-3.087 Z-3.120 I-61.863 J-3.087 F2520.000
G2 X43.798 Y43.798 Z-3.120 I61.863 J3.087 F2520.000
G1 X43.798 Y43.798 Z-6.240 F2520.000
G2 X61.863 Y3.087 Z-6.240 I-43.798 J-43.798 F2520.000
G2 X-61.863 Y-3.087 Z-6.240 I-61.863 J-3.087 F2520.000
G2 X43.798 Y43.798 Z-6.240 I61.863 J3.087 F2520.000
G1 X43.798 Y43.798 Z-9.360 F2520.000
G2 X61.863 Y3.087 Z-9.360 I-43.798 J-43.798 F2520.000
G2 X-61.863 Y-3.087 Z-9.360 I-61.863 J-3.087 F2520.000
G2 X43.798 Y43.798 Z-9.360 I61.863 J3.087 F2520.000
G1 X43.798 Y43.798 Z-12.480 F2520.000
G2 X61.863 Y3.087 Z-12.480 I-43.798 J-43.798 F2520.000
G2 X-61.863 Y-3.087 Z-12.480 I-61.863 J-3.087 F2520.000
G2 X43.798 Y43.798 Z-12.480 I61.863 J3.087 F2520.000
G1 X43.798 Y43.798 Z-15.600 F2520.000
G2 X61.863 Y3.087 Z-15.600 I-43.798 J-43.798 F2520.000
G2 X-61.863 Y-3.087 Z-15.600 I-61.863 J-3.087 F2520.000
G2 X43.798 Y43.798 Z-15.600 I61.863 J3.087 F2520.000
G1 X43.798 Y43.798 Z-18.000 F2520.000
G2 X61.863 Y3.087 Z-18.000 I-43.798 J-43.798 F2520.000
G2 X-61.863 Y-3.087 Z-18.000 I-61.863 J-3.087 F2520.000
G2 X43.798 Y43.798 Z-18.000 I61.863 J3.087 F2520.000
G0 Z5.000
(finish operation: Profile_Faces)
(begin operation: Profile_Faces001)
(machine: not set, mm/min)
(Profile_Faces001)
(Compensated Tool Path. Diameter: 3.12)
G0 Z5.000
G0 X-116.984 Y33.016
G0 Z3.000
G1 X-116.984 Y33.016 Z-3.120 F2520.000
G2 X-117.680 Y30.599 Z-3.120 I-1.016 J-1.016 F2520.000
G2 X-118.320 Y33.401 Z-3.120 I-0.320 J1.401 F2520.000
G2 X-116.984 Y33.016 Z-3.120 I0.320 J-1.401 F2520.000
G1 X-116.984 Y33.016 Z-6.240 F2520.000
G2 X-117.680 Y30.599 Z-6.240 I-1.016 J-1.016 F2520.000
G2 X-118.320 Y33.401 Z-6.240 I-0.320 J1.401 F2520.000
G2 X-116.984 Y33.016 Z-6.240 I0.320 J-1.401 F2520.000
G1 X-116.984 Y33.016 Z-9.360 F2520.000
G2 X-117.680 Y30.599 Z-9.360 I-1.016 J-1.016 F2520.000
G2 X-118.320 Y33.401 Z-9.360 I-0.320 J1.401 F2520.000
G2 X-116.984 Y33.016 Z-9.360 I0.320 J-1.401 F2520.000
G1 X-116.984 Y33.016 Z-12.480 F2520.000
G2 X-117.680 Y30.599 Z-12.480 I-1.016 J-1.016 F2520.000
G2 X-118.320 Y33.401 Z-12.480 I-0.320 J1.401 F2520.000
G2 X-116.984 Y33.016 Z-12.480 I0.320 J-1.401 F2520.000
G1 X-116.984 Y33.016 Z-15.600 F2520.000
G2 X-117.680 Y30.599 Z-15.600 I-1.016 J-1.016 F2520.000
G2 X-118.320 Y33.401 Z-15.600 I-0.320 J1.401 F2520.000
G2 X-116.984 Y33.016 Z-15.600 I0.320 J-1.401 F2520.000
G1 X-116.984 Y33.016 Z-18.000 F2520.000
G2 X-117.680 Y30.599 Z-18.000 I-1.016 J-1.016 F2520.000
G2 X-118.320 Y33.401 Z-18.000 I-0.320 J1.401 F2520.000
G2 X-116.984 Y33.016 Z-18.000 I0.320 J-1.401 F2520.000
G0 Z5.000
(finish operation: Profile_Faces001)
(begin operation: Profile_Faces002)
(machine: not set, mm/min)
(Profile_Faces002)
(Compensated Tool Path. Diameter: 3.12)
G0 Z5.000
G0 X-97.984 Y-55.984
G0 Z3.000
G1 X-97.984 Y-55.984 Z-3.120 F2520.000
G2 X-97.599 Y-56.680 Z-3.120 I-1.016 J-1.016 F2520.000
G2 X-100.401 Y-57.320 Z-3.120 I-1.401 J-0.320 F2520.000
G2 X-97.984 Y-55.984 Z-3.120 I1.401 J0.320 F2520.000
G1 X-97.984 Y-55.984 Z-6.240 F2520.000
G2 X-97.599 Y-56.680 Z-6.240 I-1.016 J-1.016 F2520.000
G2 X-100.401 Y-57.320 Z-6.240 I-1.401 J-0.320 F2520.000
G2 X-97.984 Y-55.984 Z-6.240 I1.401 J0.320 F2520.000
G1 X-97.984 Y-55.984 Z-9.360 F2520.000
G2 X-97.599 Y-56.680 Z-9.360 I-1.016 J-1.016 F2520.000
G2 X-100.401 Y-57.320 Z-9.360 I-1.401 J-0.320 F2520.000
G2 X-97.984 Y-55.984 Z-9.360 I1.401 J0.320 F2520.000
G1 X-97.984 Y-55.984 Z-12.480 F2520.000
G2 X-97.599 Y-56.680 Z-12.480 I-1.016 J-1.016 F2520.000
G2 X-100.401 Y-57.320 Z-12.480 I-1.401 J-0.320 F2520.000
G2 X-97.984 Y-55.984 Z-12.480 I1.401 J0.320 F2520.000
G1 X-97.984 Y-55.984 Z-15.600 F2520.000
G2 X-97.599 Y-56.680 Z-15.600 I-1.016 J-1.016 F2520.000
G2 X-100.401 Y-57.320 Z-15.600 I-1.401 J-0.320 F2520.000
G2 X-97.984 Y-55.984 Z-15.600 I1.401 J0.320 F2520.000
G1 X-97.984 Y-55.984 Z-18.000 F2520.000
G2 X-97.599 Y-56.680 Z-18.000 I-1.016 J-1.016 F2520.000
G2 X-100.401 Y-57.320 Z-18.000 I-1.401 J-0.320 F2520.000
G2 X-97.984 Y-55.984 Z-18.000 I1.401 J0.320 F2520.000
G0 Z5.000
(finish operation: Profile_Faces002)
(begin operation: Profile_Faces003)
(machine: not set, mm/min)
(Profile_Faces003)
(Compensated Tool Path. Diameter: 3.12)
G0 Z5.000
G0 X79.016 Y-57.984
G0 Z3.000
G1 X79.016 Y-57.984 Z-3.120 F2520.000
G2 X78.320 Y-60.401 Z-3.120 I-1.016 J-1.016 F2520.000
G2 X76.599 Y-59.320 Z-3.120 I-0.320 J1.401 F2520.000
G2 X77.680 Y-57.599 Z-3.120 I1.401 J0.320 F2520.000
G2 X79.016 Y-57.984 Z-3.120 I0.320 J-1.401 F2520.000
G1 X79.016 Y-57.984 Z-6.240 F2520.000
G2 X78.320 Y-60.401 Z-6.240 I-1.016 J-1.016 F2520.000
G2 X76.599 Y-59.320 Z-6.240 I-0.320 J1.401 F2520.000
G2 X77.680 Y-57.599 Z-6.240 I1.401 J0.320 F2520.000
G2 X79.016 Y-57.984 Z-6.240 I0.320 J-1.401 F2520.000
G1 X79.016 Y-57.984 Z-9.360 F2520.000
G2 X78.320 Y-60.401 Z-9.360 I-1.016 J-1.016 F2520.000
G2 X76.599 Y-59.320 Z-9.360 I-0.320 J1.401 F2520.000
G2 X77.680 Y-57.599 Z-9.360 I1.401 J0.320 F2520.000
G2 X79.016 Y-57.984 Z-9.360 I0.320 J-1.401 F2520.000
G1 X79.016 Y-57.984 Z-12.480 F2520.000
G2 X78.320 Y-60.401 Z-12.480 I-1.016 J-1.016 F2520.000
G2 X76.599 Y-59.320 Z-12.480 I-0.320 J1.401 F2520.000
G2 X77.680 Y-57.599 Z-12.480 I1.401 J0.320 F2520.000
G2 X79.016 Y-57.984 Z-12.480 I0.320 J-1.401 F2520.000
G1 X79.016 Y-57.984 Z-15.600 F2520.000
G2 X78.320 Y-60.401 Z-15.600 I-1.016 J-1.016 F2520.000
G2 X76.599 Y-59.320 Z-15.600 I-0.320 J1.401 F2520.000
G2 X77.680 Y-57.599 Z-15.600 I1.401 J0.320 F2520.000
G2 X79.016 Y-57.984 Z-15.600 I0.320 J-1.401 F2520.000
G1 X79.016 Y-57.984 Z-18.000 F2520.000
G2 X78.320 Y-60.401 Z-18.000 I-1.016 J-1.016 F2520.000
G2 X76.599 Y-59.320 Z-18.000 I-0.320 J1.401 F2520.000
G2 X77.680 Y-57.599 Z-18.000 I1.401 J0.320 F2520.000
G2 X79.016 Y-57.984 Z-18.000 I0.320 J-1.401 F2520.000
G0 Z5.000
(finish operation: Profile_Faces003)
(begin operation: Profile_Faces004)
(machine: not set, mm/min)
(Profile_Faces004)
(Compensated Tool Path. Diameter: 3.12)
G0 Z5.000
G0 X79.016 Y47.016
G0 Z3.000
G1 X79.016 Y47.016 Z-3.120 F2520.000
G2 X78.320 Y44.599 Z-3.120 I-1.016 J-1.016 F2520.000
G2 X76.599 Y45.680 Z-3.120 I-0.320 J1.401 F2520.000
G2 X77.680 Y47.401 Z-3.120 I1.401 J0.320 F2520.000
G2 X79.016 Y47.016 Z-3.120 I0.320 J-1.401 F2520.000
G1 X79.016 Y47.016 Z-6.240 F2520.000
G2 X78.320 Y44.599 Z-6.240 I-1.016 J-1.016 F2520.000
G2 X76.599 Y45.680 Z-6.240 I-0.320 J1.401 F2520.000
G2 X77.680 Y47.401 Z-6.240 I1.401 J0.320 F2520.000
G2 X79.016 Y47.016 Z-6.240 I0.320 J-1.401 F2520.000
G1 X79.016 Y47.016 Z-9.360 F2520.000
G2 X78.320 Y44.599 Z-9.360 I-1.016 J-1.016 F2520.000
G2 X76.599 Y45.680 Z-9.360 I-0.320 J1.401 F2520.000
G2 X77.680 Y47.401 Z-9.360 I1.401 J0.320 F2520.000
G2 X79.016 Y47.016 Z-9.360 I0.320 J-1.401 F2520.000
G1 X79.016 Y47.016 Z-12.480 F2520.000
G2 X78.320 Y44.599 Z-12.480 I-1.016 J-1.016 F2520.000
G2 X76.599 Y45.680 Z-12.480 I-0.320 J1.401 F2520.000
G2 X77.680 Y47.401 Z-12.480 I1.401 J0.320 F2520.000
G2 X79.016 Y47.016 Z-12.480 I0.320 J-1.401 F2520.000
G1 X79.016 Y47.016 Z-15.600 F2520.000
G2 X78.320 Y44.599 Z-15.600 I-1.016 J-1.016 F2520.000
G2 X76.599 Y45.680 Z-15.600 I-0.320 J1.401 F2520.000
G2 X77.680 Y47.401 Z-15.600 I1.401 J0.320 F2520.000
G2 X79.016 Y47.016 Z-15.600 I0.320 J-1.401 F2520.000
G1 X79.016 Y47.016 Z-18.000 F2520.000
G2 X78.320 Y44.599 Z-18.000 I-1.016 J-1.016 F2520.000
G2 X76.599 Y45.680 Z-18.000 I-0.320 J1.401 F2520.000
G2 X77.680 Y47.401 Z-18.000 I1.401 J0.320 F2520.000
G2 X79.016 Y47.016 Z-18.000 I0.320 J-1.401 F2520.000
G0 Z5.000
(finish operation: Profile_Faces004)
(begin operation: Pocket_Shape)
(machine: not set, mm/min)
(Pocket_Shape)
G0 Z5.000
G0 X104.963 Y104.963
G0 Z3.000
G1 X104.963 Y104.963 Z-3.120 F2520.000
G3 X-148.361 Y-4.832 Z-3.120 I-104.963 J-104.963 F2520.000
G3 X4.832 Y-148.361 Z-3.120 I148.361 J4.832 F2520.000
G3 X148.361 Y4.832 Z-3.120 I-4.832 J148.361 F2520.000
G3 X104.963 Y104.963 Z-3.120 I-148.361 J-4.832 F2520.000
G0 X104.963 Y104.963 Z5.000
G0 X103.198 Y103.198 Z5.000
G0 X103.198 Y103.198 Z-0.120
G1 X103.198 Y103.198 Z-3.120 F2520.000
G3 X-145.867 Y-4.750 Z-3.120 I-103.198 J-103.198 F2520.000
G3 X145.867 Y4.750 Z-3.120 I145.867 J4.750 F2520.000
G3 X103.198 Y103.198 Z-3.120 I-145.867 J-4.750 F2520.000
G0 X103.198 Y103.198 Z5.000
G0 X102.646 Y102.646 Z5.000
G0 X102.646 Y102.646 Z-0.120
G1 X102.646 Y102.646 Z-3.120 F2520.000
G3 X-145.087 Y-4.725 Z-3.120 I-102.646 J-102.646 F2520.000
G3 X145.087 Y4.725 Z-3.120 I145.087 J4.725 F2520.000
G3 X102.646 Y102.646 Z-3.120 I-145.087 J-4.725 F2520.000
G0 X102.646 Y102.646 Z5.000
G0 X102.414 Y102.414 Z5.000
G0 X102.414 Y102.414 Z-0.120
G1 X102.414 Y102.414 Z-3.120 F2520.000
G3 X-144.752 Y4.933 Z-3.120 I-102.414 J-102.414 F2520.000
G3 X144.752 Y-4.933 Z-3.120 I144.752 J-4.933 F2520.000
G3 X102.414 Y102.414 Z-3.120 I-144.752 J4.933 F2520.000
G0 X102.414 Y102.414 Z5.000
G0 X101.863 Y101.863 Z5.000
G0 X101.863 Y101.863 Z-0.120
G1 X101.863 Y101.863 Z-3.120 F2520.000
G3 X-143.973 Y4.900 Z-3.120 I-101.863 J-101.863 F2520.000
G3 X143.973 Y-4.900 Z-3.120 I143.973 J-4.900 F2520.000
G3 X101.863 Y101.863 Z-3.120 I-143.973 J4.900 F2520.000
G0 X101.863 Y101.863 Z5.000
G0 X100.098 Y100.098 Z5.000
G0 X100.098 Y100.098 Z-0.120
G1 X100.098 Y100.098 Z-3.120 F2520.000
G3 X-141.479 Y4.794 Z-3.120 I-100.098 J-100.098 F2520.000
G3 X141.479 Y-4.794 Z-3.120 I141.479 J-4.794 F2520.000
G3 X100.098 Y100.098 Z-3.120 I-141.479 J4.794 F2520.000
G1 X100.098 Y100.098 Z-6.240 F2520.000
G3 X-141.479 Y4.794 Z-6.240 I-100.098 J-100.098 F2520.000
G3 X141.479 Y-4.794 Z-6.240 I141.479 J-4.794 F2520.000
G3 X100.098 Y100.098 Z-6.240 I-141.479 J4.794 F2520.000
G0 X100.098 Y100.098 Z5.000
G0 X101.863 Y101.863 Z5.000
G0 X101.863 Y101.863 Z-3.240
G1 X101.863 Y101.863 Z-6.240 F2520.000
G3 X-143.973 Y4.900 Z-6.240 I-101.863 J-101.863 F2520.000
G3 X143.973 Y-4.900 Z-6.240 I143.973 J-4.900 F2520.000
G3 X101.863 Y101.863 Z-6.240 I-143.973 J4.900 F2520.000
G0 X101.863 Y101.863 Z5.000
G0 X102.414 Y102.414 Z5.000
G0 X102.414 Y102.414 Z-3.240
G1 X102.414 Y102.414 Z-6.240 F2520.000
G3 X-144.752 Y4.933 Z-6.240 I-102.414 J-102.414 F2520.000
G3 X144.752 Y-4.933 Z-6.240 I144.752 J-4.933 F2520.000
G3 X102.414 Y102.414 Z-6.240 I-144.752 J4.933 F2520.000
G0 X102.414 Y102.414 Z5.000
G0 X102.646 Y102.646 Z5.000
G0 X102.646 Y102.646 Z-3.240
G1 X102.646 Y102.646 Z-6.240 F2520.000
G3 X-145.087 Y-4.725 Z-6.240 I-102.646 J-102.646 F2520.000
G3 X145.087 Y4.725 Z-6.240 I145.087 J4.725 F2520.000
G3 X102.646 Y102.646 Z-6.240 I-145.087 J-4.725 F2520.000
G0 X102.646 Y102.646 Z5.000
G0 X103.198 Y103.198 Z5.000
G0 X103.198 Y103.198 Z-3.240
G1 X103.198 Y103.198 Z-6.240 F2520.000
G3 X-145.867 Y-4.750 Z-6.240 I-103.198 J-103.198 F2520.000
G3 X145.867 Y4.750 Z-6.240 I145.867 J4.750 F2520.000
G3 X103.198 Y103.198 Z-6.240 I-145.867 J-4.750 F2520.000
G0 X103.198 Y103.198 Z5.000
G0 X104.963 Y104.963 Z5.000
G0 X104.963 Y104.963 Z-3.240
G1 X104.963 Y104.963 Z-6.240 F2520.000
G3 X-148.361 Y-4.832 Z-6.240 I-104.963 J-104.963 F2520.000
G3 X4.832 Y-148.361 Z-6.240 I148.361 J4.832 F2520.000
G3 X148.361 Y4.832 Z-6.240 I-4.832 J148.361 F2520.000
G3 X104.963 Y104.963 Z-6.240 I-148.361 J-4.832 F2520.000
G1 X104.963 Y104.963 Z-9.000 F2520.000
G3 X-148.361 Y-4.832 Z-9.000 I-104.963 J-104.963 F2520.000
G3 X4.832 Y-148.361 Z-9.000 I148.361 J4.832 F2520.000
G3 X148.361 Y4.832 Z-9.000 I-4.832 J148.361 F2520.000
G3 X104.963 Y104.963 Z-9.000 I-148.361 J-4.832 F2520.000
G0 X104.963 Y104.963 Z5.000
G0 X103.198 Y103.198 Z5.000
G0 X103.198 Y103.198 Z-6.000
G1 X103.198 Y103.198 Z-9.000 F2520.000
G3 X-145.867 Y-4.750 Z-9.000 I-103.198 J-103.198 F2520.000
G3 X145.867 Y4.750 Z-9.000 I145.867 J4.750 F2520.000
G3 X103.198 Y103.198 Z-9.000 I-145.867 J-4.750 F2520.000
G0 X103.198 Y103.198 Z5.000
G0 X102.646 Y102.646 Z5.000
G0 X102.646 Y102.646 Z-6.000
G1 X102.646 Y102.646 Z-9.000 F2520.000
G3 X-145.087 Y-4.725 Z-9.000 I-102.646 J-102.646 F2520.000
G3 X145.087 Y4.725 Z-9.000 I145.087 J4.725 F2520.000
G3 X102.646 Y102.646 Z-9.000 I-145.087 J-4.725 F2520.000
G0 X102.646 Y102.646 Z5.000
G0 X102.414 Y102.414 Z5.000
G0 X102.414 Y102.414 Z-6.000
G1 X102.414 Y102.414 Z-9.000 F2520.000
G3 X-144.752 Y4.933 Z-9.000 I-102.414 J-102.414 F2520.000
G3 X144.752 Y-4.933 Z-9.000 I144.752 J-4.933 F2520.000
G3 X102.414 Y102.414 Z-9.000 I-144.752 J4.933 F2520.000
G0 X102.414 Y102.414 Z5.000
G0 X101.863 Y101.863 Z5.000
G0 X101.863 Y101.863 Z-6.000
G1 X101.863 Y101.863 Z-9.000 F2520.000
G3 X-143.973 Y4.900 Z-9.000 I-101.863 J-101.863 F2520.000
G3 X143.973 Y-4.900 Z-9.000 I143.973 J-4.900 F2520.000
G3 X101.863 Y101.863 Z-9.000 I-143.973 J4.900 F2520.000
G0 X101.863 Y101.863 Z5.000
G0 X100.098 Y100.098 Z5.000
G0 X100.098 Y100.098 Z-6.000
G1 X100.098 Y100.098 Z-9.000 F2520.000
G3 X-141.479 Y4.794 Z-9.000 I-100.098 J-100.098 F2520.000
G3 X141.479 Y-4.794 Z-9.000 I141.479 J-4.794 F2520.000
G3 X100.098 Y100.098 Z-9.000 I-141.479 J4.794 F2520.000
G0 Z5.000
(finish operation: Pocket_Shape)
(begin operation: Contour)
(machine: not set, mm/min)
(Contour)
(Compensated Tool Path. Diameter: 3.12)
G0 Z5.000
G0 X107.169 Y107.169
G0 Z3.000
G1 X107.169 Y107.169 Z-3.120 F2520.000
G2 X151.479 Y4.946 Z-3.120 I-107.169 J-107.169 F2520.000
G2 X-151.479 Y-4.946 Z-3.120 I-151.479 J-4.946 F2520.000
G2 X107.169 Y107.169 Z-3.120 I151.479 J4.946 F2520.000
G1 X107.169 Y107.169 Z-6.240 F2520.000
G2 X151.479 Y4.946 Z-6.240 I-107.169 J-107.169 F2520.000
G2 X-151.479 Y-4.946 Z-6.240 I-151.479 J-4.946 F2520.000
G2 X107.169 Y107.169 Z-6.240 I151.479 J4.946 F2520.000
G1 X107.169 Y107.169 Z-9.360 F2520.000
G2 X151.479 Y4.946 Z-9.360 I-107.169 J-107.169 F2520.000
G2 X-151.479 Y-4.946 Z-9.360 I-151.479 J-4.946 F2520.000
G2 X107.169 Y107.169 Z-9.360 I151.479 J4.946 F2520.000
G1 X107.169 Y107.169 Z-12.480 F2520.000
G2 X151.479 Y4.946 Z-12.480 I-107.169 J-107.169 F2520.000
G2 X-151.479 Y-4.946 Z-12.480 I-151.479 J-4.946 F2520.000
G2 X107.169 Y107.169 Z-12.480 I151.479 J4.946 F2520.000
G1 X107.169 Y107.169 Z-15.600 F2520.000
G2 X151.479 Y4.946 Z-15.600 I-107.169 J-107.169 F2520.000
G2 X-151.479 Y-4.946 Z-15.600 I-151.479 J-4.946 F2520.000
G2 X107.169 Y107.169 Z-15.600 I151.479 J4.946 F2520.000
G1 X107.169 Y107.169 Z-18.000 F2520.000
G2 X151.479 Y4.946 Z-18.000 I-107.169 J-107.169 F2520.000
G2 X-151.479 Y-4.946 Z-18.000 I-151.479 J-4.946 F2520.000
G2 X107.169 Y107.169 Z-18.000 I151.479 J4.946 F2520.000
G0 Z5.000
(finish operation: Contour)
(begin postamble)
M05
G17 G54 G90 G80 G40
M2
